!!!COM: muz.: TKk
!!!OTL: Stworzeni na Twój obraz
**kern	**dynam	**kern	**dynam	**kern	**dynam	**kern	**dynam	**kern	**dynam	**kern	**dynam	**kern	**text	**dynam	**kern	**kern	**text	**kern	**kern	**dynam	**kern	**dynam	**kern	**dynam	**kern	**dynam	**kern	**dynam
*part14	*part14	*part13	*part13	*part12	*part12	*part11	*part11	*part10	*part10	*part9	*part9	*part8	*part8	*part8	*part7	*part6	*part6	*part5	*part5	*part5	*part4	*part4	*part3	*part3	*part2	*part2	*part1	*part1
*staff15	*	*staff14	*	*staff13	*	*staff12	*	*staff11	*	*staff10	*	*staff9	*staff9	*	*staff8	*staff7	*staff7	*staff6	*staff5	*	*staff4	*	*staff3	*	*staff2	*	*staff1	*
*I"Contrabbasso	*	*I"Violoncelli	*	*I"Viole	*	*I"Violini 2	*	*I"Violini 1	*	*I"Tenore Basso	*	*I"Soprano Alto	*	*	*I"Tenore Solista	*I"Soprano Solista	*	*I"Arpa	*	*	*I"Fagotto	*	*I"Clarinetto in B♭	*	*I"Oboe	*	*I"Flauto	*
*I'C-b.	*	*I'V-c.	*	*I'V-le	*	*I'V-ni 2	*	*I'V-ni 1	*	*I'T B	*	*I'S A	*	*	*I'T. Sol.	*I'S. Sol.	*	*I'Ar.	*	*	*I'Fag.	*	*I'Cl. in B♭	*	*I'Ob.	*	*I'Fl.	*
*clefF4	*	*clefF4	*	*clefC3	*	*clefG2	*	*clefG2	*	*clefF4	*	*clefG2	*	*	*clefGv2	*clefG2	*	*clefF4	*clefG2	*	*clefF4	*	*clefG2	*	*clefG2	*	*clefG2	*
*ITrd0c0	*	*	*	*	*	*	*	*	*	*	*	*	*	*	*	*	*	*	*	*	*	*	*ITrd1c2	*	*	*	*	*
*k[b-]	*	*k[b-]	*	*k[b-]	*	*k[b-]	*	*k[b-]	*	*k[b-]	*	*k[b-]	*	*	*k[b-]	*k[b-]	*	*k[b-]	*k[b-]	*	*k[b-]	*	*k[b-]	*	*k[b-]	*	*k[b-]	*
*M4/4	*	*M4/4	*	*M4/4	*	*M4/4	*	*M4/4	*	*M4/4	*	*M4/4	*	*	*M4/4	*M4/4	*	*M4/4	*M4/4	*	*M4/4	*	*M4/4	*	*M4/4	*	*M4/4	*
*MM70	*MM70	*	*MM70	*	*MM70	*	*MM70	*	*MM70	*	*MM70	*	*MM70	*	*	*MM70	*MM70	*	*MM70	*	*MM70	*	*MM70	*	*MM70	*	*MM70	*
=1	=1	=1	=1	=1	=1	=1	=1	=1	=1	=1	=1	=1	=1	=1	=1	=1	=1	=1	=1	=1	=1	=1	=1	=1	=1	=1	=1	=1
!	!	!	!	!	!	!	!	!	!	!	!	!	!	!	!	!	!	!	!	!	!	!	!	!	!	!	!LO:TX:a:t=[quarter]=70	!
1r	.	16F~LL	mf	16c~LL	mf	16f~LL	mf	16a~LL	mf	1r	.	1r	.	.	1r	1r	.	1r	1r	.	1r	.	1r	.	1r	.	1r	.
.	.	16F~JJ	.	16c~JJ	.	16f~JJ	.	16a~JJ	.	.	.	.	.	.	.	.	.	.	.	.	.	.	.	.	.	.	.	.
.	.	16r	.	16r	.	16r	.	16r	.	.	.	.	.	.	.	.	.	.	.	.	.	.	.	.	.	.	.	.
.	.	16F~	.	16c~	.	16f~	.	16a~	.	.	.	.	.	.	.	.	.	.	.	.	.	.	.	.	.	.	.	.
.	.	16F~LL	.	16c~LL	.	16f~LL	.	16a~LL	.	.	.	.	.	.	.	.	.	.	.	.	.	.	.	.	.	.	.	.
.	.	16F~JJ	.	16c~JJ	.	16f~JJ	.	16a~JJ	.	.	.	.	.	.	.	.	.	.	.	.	.	.	.	.	.	.	.	.
.	.	16r	.	16r	.	16r	.	16r	.	.	.	.	.	.	.	.	.	.	.	.	.	.	.	.	.	.	.	.
.	.	16F~	.	16c~	.	16f~	.	16a~	.	.	.	.	.	.	.	.	.	.	.	.	.	.	.	.	.	.	.	.
.	.	16F~LL	.	16c~LL	.	16f~LL	.	16a~LL	.	.	.	.	.	.	.	.	.	.	.	.	.	.	.	.	.	.	.	.
.	.	16F~JJ	.	16c~JJ	.	16f~JJ	.	16a~JJ	.	.	.	.	.	.	.	.	.	.	.	.	.	.	.	.	.	.	.	.
.	.	16r	.	16r	.	16r	.	16r	.	.	.	.	.	.	.	.	.	.	.	.	.	.	.	.	.	.	.	.
.	.	16F~	.	16c~	.	16f~	.	16a~	.	.	.	.	.	.	.	.	.	.	.	.	.	.	.	.	.	.	.	.
.	.	16F~LL	.	16c~LL	.	16f~LL	.	16a~LL	.	.	.	.	.	.	.	.	.	.	.	.	.	.	.	.	.	.	.	.
.	.	16F~	.	16c~	.	16f~	.	16a~	.	.	.	.	.	.	.	.	.	.	.	.	.	.	.	.	.	.	.	.
.	.	16F~	.	16c~	.	16f~	.	16a~	.	.	.	.	.	.	.	.	.	.	.	.	.	.	.	.	.	.	.	.
.	.	16F~JJ	.	16c~JJ	.	16f~JJ	.	16a~JJ	.	.	.	.	.	.	.	.	.	.	.	.	.	.	.	.	.	.	.	.
=2	=2	=2	=2	=2	=2	=2	=2	=2	=2	=2	=2	=2	=2	=2	=2	=2	=2	=2	=2	=2	=2	=2	=2	=2	=2	=2	=2	=2
1r	.	16C~LL	.	16c~LL	.	16f~LL	.	16g~LL	.	1r	.	1r	.	.	1r	1r	.	1r	1r	.	1r	.	1r	.	1r	.	1r	.
.	.	16C~JJ	.	16c~JJ	.	16f~JJ	.	16g~JJ	.	.	.	.	.	.	.	.	.	.	.	.	.	.	.	.	.	.	.	.
.	.	16r	.	16r	.	16r	.	16r	.	.	.	.	.	.	.	.	.	.	.	.	.	.	.	.	.	.	.	.
.	.	16C~	.	16c~	.	16f~	.	16g~	.	.	.	.	.	.	.	.	.	.	.	.	.	.	.	.	.	.	.	.
.	.	16C~LL	.	16c~LL	.	16f~LL	.	16g~LL	.	.	.	.	.	.	.	.	.	.	.	.	.	.	.	.	.	.	.	.
.	.	16C~JJ	.	16c~JJ	.	16f~JJ	.	16g~JJ	.	.	.	.	.	.	.	.	.	.	.	.	.	.	.	.	.	.	.	.
.	.	16r	.	16r	.	16r	.	16r	.	.	.	.	.	.	.	.	.	.	.	.	.	.	.	.	.	.	.	.
.	.	16C~	.	16c~	.	16f~	.	16g~	.	.	.	.	.	.	.	.	.	.	.	.	.	.	.	.	.	.	.	.
.	.	16C~LL	.	16c~LL	.	16e~LL	.	16g~LL	.	.	.	.	.	.	.	.	.	.	.	.	.	.	.	.	.	.	.	.
.	.	16C~JJ	.	16c~JJ	.	16e~JJ	.	16g~JJ	.	.	.	.	.	.	.	.	.	.	.	.	.	.	.	.	.	.	.	.
.	.	16r	.	16r	.	16r	.	16r	.	.	.	.	.	.	.	.	.	.	.	.	.	.	.	.	.	.	.	.
.	.	16C~	.	16c~	.	16e~	.	16g~	.	.	.	.	.	.	.	.	.	.	.	.	.	.	.	.	.	.	.	.
.	.	16C~LL	.	16c~LL	.	16e~LL	.	16g~LL	.	.	.	.	.	.	.	.	.	.	.	.	.	.	.	.	.	.	.	.
.	.	16C~	.	16c~	.	16e~	.	16g~	.	.	.	.	.	.	.	.	.	.	.	.	.	.	.	.	.	.	.	.
.	.	16C~	.	16c~	.	16e~	.	16g~	.	.	.	.	.	.	.	.	.	.	.	.	.	.	.	.	.	.	.	.
.	.	16C~JJ	.	16c~JJ	.	16e~JJ	.	16g~JJ	.	.	.	.	.	.	.	.	.	.	.	.	.	.	.	.	.	.	.	.
=3	=3	=3	=3	=3	=3	=3	=3	=3	=3	=3	=3	=3	=3	=3	=3	=3	=3	=3	=3	=3	=3	=3	=3	=3	=3	=3	=3	=3
1r	.	16G~LL	.	16d~LL	.	16g~LL	.	16b-~LL	.	1r	.	1r	.	.	1r	1r	.	1r	1r	.	1r	.	1r	.	1r	.	1r	.
.	.	16G~JJ	.	16d~JJ	.	16g~JJ	.	16b-~JJ	.	.	.	.	.	.	.	.	.	.	.	.	.	.	.	.	.	.	.	.
.	.	16r	.	16r	.	16r	.	16r	.	.	.	.	.	.	.	.	.	.	.	.	.	.	.	.	.	.	.	.
.	.	16G~	.	16d~	.	16g~	.	16b-~	.	.	.	.	.	.	.	.	.	.	.	.	.	.	.	.	.	.	.	.
.	.	16G~LL	.	16d~LL	.	16g~LL	.	16b-~LL	.	.	.	.	.	.	.	.	.	.	.	.	.	.	.	.	.	.	.	.
.	.	16G~JJ	.	16d~JJ	.	16g~JJ	.	16b-~JJ	.	.	.	.	.	.	.	.	.	.	.	.	.	.	.	.	.	.	.	.
.	.	16r	.	16r	.	16r	.	16r	.	.	.	.	.	.	.	.	.	.	.	.	.	.	.	.	.	.	.	.
.	.	16G~	.	16d~	.	16g~	.	16b-~	.	.	.	.	.	.	.	.	.	.	.	.	.	.	.	.	.	.	.	.
.	.	16G~LL	.	16d~LL	.	16g~LL	.	16b-~LL	.	.	.	.	.	.	.	.	.	.	.	.	.	.	.	.	.	.	.	.
.	.	16G~JJ	.	16d~JJ	.	16g~JJ	.	16b-~JJ	.	.	.	.	.	.	.	.	.	.	.	.	.	.	.	.	.	.	.	.
.	.	16r	.	16r	.	16r	.	16r	.	.	.	.	.	.	.	.	.	.	.	.	.	.	.	.	.	.	.	.
.	.	16G~	.	16d~	.	16g~	.	16b-~	.	.	.	.	.	.	.	.	.	.	.	.	.	.	.	.	.	.	.	.
.	.	16G~LL	.	16d~LL	.	16g~LL	.	16b-~LL	.	.	.	.	.	.	.	.	.	.	.	.	.	.	.	.	.	.	.	.
.	.	16G~	.	16d~	.	16g~	.	16b-~	.	.	.	.	.	.	.	.	.	.	.	.	.	.	.	.	.	.	.	.
.	.	16G~	.	16d~	.	16g~	.	16b-~	.	.	.	.	.	.	.	.	.	.	.	.	.	.	.	.	.	.	.	.
.	.	16G~JJ	.	16d~JJ	.	16g~JJ	.	16b-~JJ	.	.	.	.	.	.	.	.	.	.	.	.	.	.	.	.	.	.	.	.
=4	=4	=4	=4	=4	=4	=4	=4	=4	=4	=4	=4	=4	=4	=4	=4	=4	=4	=4	=4	=4	=4	=4	=4	=4	=4	=4	=4	=4
1r	.	16D~LL	.	16d~LL	.	16g~LL	.	16a~LL	.	1r	.	1r	.	.	1r	1r	.	1r	1r	.	1r	.	1r	.	1r	.	1r	.
.	.	16D~JJ	.	16d~JJ	.	16g~JJ	.	16a~JJ	.	.	.	.	.	.	.	.	.	.	.	.	.	.	.	.	.	.	.	.
.	.	16r	.	16r	.	16r	.	16r	.	.	.	.	.	.	.	.	.	.	.	.	.	.	.	.	.	.	.	.
.	.	16D~	.	16d~	.	16g~	.	16a~	.	.	.	.	.	.	.	.	.	.	.	.	.	.	.	.	.	.	.	.
.	.	16D~LL	.	16d~LL	.	16g~LL	.	16a~LL	.	.	.	.	.	.	.	.	.	.	.	.	.	.	.	.	.	.	.	.
.	.	16D~JJ	.	16d~JJ	.	16g~JJ	.	16a~JJ	.	.	.	.	.	.	.	.	.	.	.	.	.	.	.	.	.	.	.	.
.	.	16r	.	16r	.	16r	.	16r	.	.	.	.	.	.	.	.	.	.	.	.	.	.	.	.	.	.	.	.
.	.	16D~	.	16d~	.	16g~	.	16a~	.	.	.	.	.	.	.	.	.	.	.	.	.	.	.	.	.	.	.	.
.	.	16D~LL	.	16d~LL	.	16f~LL	.	16a~LL	.	.	.	.	.	.	.	.	.	.	.	.	.	.	.	.	.	.	.	.
.	.	16D~JJ	.	16d~JJ	.	16f~JJ	.	16a~JJ	.	.	.	.	.	.	.	.	.	.	.	.	.	.	.	.	.	.	.	.
.	.	16r	.	16r	.	16r	.	16r	.	.	.	.	.	.	.	.	.	.	.	.	.	.	.	.	.	.	.	.
.	.	16D~	.	16d~	.	16f~	.	16a~	.	.	.	.	.	.	.	.	.	.	.	.	.	.	.	.	.	.	.	.
.	.	16D~LL	.	16d~LL	.	16f~LL	.	16a~LL	.	.	.	.	.	.	.	.	.	.	.	.	.	.	.	.	.	.	.	.
.	.	16D~	.	16d~	.	16f~	.	16a~	.	.	.	.	.	.	.	.	.	.	.	.	.	.	.	.	.	.	.	.
.	.	16D~	.	16c~	.	16f~	.	16a~	.	.	.	.	.	.	.	.	.	.	.	.	.	.	.	.	.	.	.	.
.	.	16D~JJ	.	16c~JJ	.	16f~JJ	.	16a~JJ	.	.	.	.	.	.	.	.	.	.	.	.	.	.	.	.	.	.	.	.
=5	=5	=5	=5	=5	=5	=5	=5	=5	=5	=5	=5	=5	=5	=5	=5	=5	=5	=5	=5	=5	=5	=5	=5	=5	=5	=5	=5	=5
1r	.	16E-X~LL	.	16B-~LL	.	16f~LL	.	16g~LL	.	1r	.	1r	.	.	1r	1r	.	1r	1r	.	1r	.	1r	.	1r	.	1r	.
.	.	16E-~JJ	.	16B-~JJ	.	16f~JJ	.	16g~JJ	.	.	.	.	.	.	.	.	.	.	.	.	.	.	.	.	.	.	.	.
.	.	16r	.	16r	.	16r	.	16r	.	.	.	.	.	.	.	.	.	.	.	.	.	.	.	.	.	.	.	.
.	.	16E-~	.	16B-~	.	16f~	.	16g~	.	.	.	.	.	.	.	.	.	.	.	.	.	.	.	.	.	.	.	.
.	.	16E-~LL	.	16B-~LL	.	16f~LL	.	16g~LL	.	.	.	.	.	.	.	.	.	.	.	.	.	.	.	.	.	.	.	.
.	.	16E-~JJ	.	16B-~JJ	.	16f~JJ	.	16g~JJ	.	.	.	.	.	.	.	.	.	.	.	.	.	.	.	.	.	.	.	.
.	.	16r	.	16r	.	16r	.	16r	.	.	.	.	.	.	.	.	.	.	.	.	.	.	.	.	.	.	.	.
.	.	16E-~	.	16B-~	.	16f~	.	16g~	.	.	.	.	.	.	.	.	.	.	.	.	.	.	.	.	.	.	.	.
.	.	16E-~LL	.	16B-~LL	.	16e-X~LL	.	16g~LL	.	.	.	.	.	.	.	.	.	.	.	.	.	.	.	.	.	.	.	.
.	.	16E-~JJ	.	16B-~JJ	.	16e-~JJ	.	16g~JJ	.	.	.	.	.	.	.	.	.	.	.	.	.	.	.	.	.	.	.	.
.	.	16r	.	16r	.	16r	.	16r	.	.	.	.	.	.	.	.	.	.	.	.	.	.	.	.	.	.	.	.
.	.	16E-~	.	16B-~	.	16e-~	.	16g~	.	.	.	.	.	.	.	.	.	.	.	.	.	.	.	.	.	.	.	.
.	.	16E-~LL	.	16B-~LL	.	16e-~LL	.	16g~LL	.	.	.	.	.	.	.	.	.	.	.	.	.	.	.	.	.	.	.	.
.	.	16E-~	.	16B-~	.	16e-~	.	16g~	.	.	.	.	.	.	.	.	.	.	.	.	.	.	.	.	.	.	.	.
.	.	16E-~	.	16B-~	.	16e-~	.	16g~	.	.	.	.	.	.	.	.	.	.	.	.	.	.	.	.	.	.	.	.
.	.	16E-~JJ	.	16B-~JJ	.	16e-~JJ	.	16g~JJ	.	.	.	.	.	.	.	.	.	.	.	.	.	.	.	.	.	.	.	.
=6	=6	=6	=6	=6	=6	=6	=6	=6	=6	=6	=6	=6	=6	=6	=6	=6	=6	=6	=6	=6	=6	=6	=6	=6	=6	=6	=6	=6
1r	.	16BB-~LL	.	16B-~LL	.	16e-X~LL	.	16f~LL	.	1r	.	1r	.	.	1r	1r	.	1r	1r	.	1r	.	1r	.	1r	.	1r	.
.	.	16BB-~JJ	.	16B-~JJ	.	16e-~JJ	.	16f~JJ	.	.	.	.	.	.	.	.	.	.	.	.	.	.	.	.	.	.	.	.
.	.	16r	.	16r	.	16r	.	16r	.	.	.	.	.	.	.	.	.	.	.	.	.	.	.	.	.	.	.	.
.	.	16BB-~	.	16B-~	.	16e-~	.	16f~	.	.	.	.	.	.	.	.	.	.	.	.	.	.	.	.	.	.	.	.
.	.	16BB-~LL	.	16B-~LL	.	16e-~LL	.	16f~LL	.	.	.	.	.	.	.	.	.	.	.	.	.	.	.	.	.	.	.	.
.	.	16BB-~JJ	.	16B-~JJ	.	16e-~JJ	.	16f~JJ	.	.	.	.	.	.	.	.	.	.	.	.	.	.	.	.	.	.	.	.
.	.	16r	.	16r	.	16r	.	16r	.	.	.	.	.	.	.	.	.	.	.	.	.	.	.	.	.	.	.	.
.	.	16BB-~	.	16B-~	.	16e-~	.	16f~	.	.	.	.	.	.	.	.	.	.	.	.	.	.	.	.	.	.	.	.
.	.	16BB-~LL	.	16B-~LL	.	16d~LL	.	16f~LL	.	.	.	.	.	.	.	.	.	.	.	.	.	.	.	.	.	.	.	.
.	.	16BB-~JJ	.	16B-~JJ	.	16d~JJ	.	16f~JJ	.	.	.	.	.	.	.	.	.	.	.	.	.	.	.	.	.	.	.	.
.	.	16r	.	16r	.	16r	.	16r	.	.	.	.	.	.	.	.	.	.	.	.	.	.	.	.	.	.	.	.
.	.	16BB-~	.	16B-~	.	16d~	.	16f~	.	.	.	.	.	.	.	.	.	.	.	.	.	.	.	.	.	.	.	.
.	.	16BB-~LL	.	16B-~LL	.	16d~LL	.	16f~LL	.	.	.	.	.	.	.	.	.	.	.	.	.	.	.	.	.	.	.	.
.	.	16BB-~	.	16B-~	.	16d~	.	16f~	.	.	.	.	.	.	.	.	.	.	.	.	.	.	.	.	.	.	.	.
.	.	16BB-~	.	16B-~	.	16d~	.	16f~	.	.	.	.	.	.	.	.	.	.	.	.	.	.	.	.	.	.	.	.
.	.	16BB-~JJ	.	16B-~JJ	.	16d~JJ	.	16f~JJ	.	.	.	.	.	.	.	.	.	.	.	.	.	.	.	.	.	.	.	.
=7	=7	=7	=7	=7	=7	=7	=7	=7	=7	=7	=7	=7	=7	=7	=7	=7	=7	=7	=7	=7	=7	=7	=7	=7	=7	=7	=7	=7
1r	.	16D-X~LL	.	16A-X~LL	.	16d-X~LL	.	16f~LL	.	1r	.	1r	.	.	1r	1r	.	1r	1r	.	1r	.	1r	.	1r	.	1r	.
.	.	16D-~JJ	.	16A-~JJ	.	16d-~JJ	.	16f~JJ	.	.	.	.	.	.	.	.	.	.	.	.	.	.	.	.	.	.	.	.
.	.	16r	.	16r	.	16r	.	16r	.	.	.	.	.	.	.	.	.	.	.	.	.	.	.	.	.	.	.	.
.	.	16D-~	.	16A-~	.	16d-~	.	16f~	.	.	.	.	.	.	.	.	.	.	.	.	.	.	.	.	.	.	.	.
.	.	16D-~LL	.	16A-~LL	.	16d-~LL	.	16f~LL	.	.	.	.	.	.	.	.	.	.	.	.	.	.	.	.	.	.	.	.
.	.	16D-~JJ	.	16A-~JJ	.	16d-~JJ	.	16f~JJ	.	.	.	.	.	.	.	.	.	.	.	.	.	.	.	.	.	.	.	.
.	.	16r	.	16r	.	16r	.	16r	.	.	.	.	.	.	.	.	.	.	.	.	.	.	.	.	.	.	.	.
.	.	16D-~	.	16A-~	.	16d-~	.	16f~	.	.	.	.	.	.	.	.	.	.	.	.	.	.	.	.	.	.	.	.
.	.	16D-~LL	.	16A-~LL	.	16d-~LL	.	16f~LL	.	.	.	.	.	.	.	.	.	.	.	.	.	.	.	.	.	.	.	.
.	.	16D-~JJ	.	16A-~JJ	.	16d-~JJ	.	16f~JJ	.	.	.	.	.	.	.	.	.	.	.	.	.	.	.	.	.	.	.	.
.	.	16r	.	16r	.	16r	.	16r	.	.	.	.	.	.	.	.	.	.	.	.	.	.	.	.	.	.	.	.
.	.	16D-~	.	16A-~	.	16d-~	.	16f~	.	.	.	.	.	.	.	.	.	.	.	.	.	.	.	.	.	.	.	.
.	.	16D-~LL	.	16A-~LL	.	16d-~LL	.	16f~LL	.	.	.	.	.	.	.	.	.	.	.	.	.	.	.	.	.	.	.	.
.	.	16D-~	.	16A-~	.	16d-~	.	16f~	.	.	.	.	.	.	.	.	.	.	.	.	.	.	.	.	.	.	.	.
.	.	16D-~	.	16A-~	.	16d-~	.	16f~	.	.	.	.	.	.	.	.	.	.	.	.	.	.	.	.	.	.	.	.
.	.	16D-~JJ	.	16A-~JJ	.	16d-~JJ	.	16f~JJ	.	.	.	.	.	.	.	.	.	.	.	.	.	.	.	.	.	.	.	.
=8	=8	=8	=8	=8	=8	=8	=8	=8	=8	=8	=8	=8	=8	=8	=8	=8	=8	=8	=8	=8	=8	=8	=8	=8	=8	=8	=8	=8
2.r	.	16C~LL	.	16c~LL	.	16f~LL	.	16g~LL	.	1r	.	1r	.	.	1r	1r	.	1r	1r	.	1r	.	1r	.	2.r	.	1r	.
.	.	16C~JJ	.	16c~JJ	.	16f~JJ	.	16g~JJ	.	.	.	.	.	.	.	.	.	.	.	.	.	.	.	.	.	.	.	.
.	.	16r	.	16r	.	16r	.	16r	.	.	.	.	.	.	.	.	.	.	.	.	.	.	.	.	.	.	.	.
.	.	16C~	.	16c~	.	16f~	.	16g~	.	.	.	.	.	.	.	.	.	.	.	.	.	.	.	.	.	.	.	.
.	.	16C~LL	.	16c~LL	.	16f~LL	.	16g~LL	.	.	.	.	.	.	.	.	.	.	.	.	.	.	.	.	.	.	.	.
.	.	16C~JJ	.	16c~JJ	.	16f~JJ	.	16g~JJ	.	.	.	.	.	.	.	.	.	.	.	.	.	.	.	.	.	.	.	.
.	.	16r	.	16r	.	16r	.	16r	.	.	.	.	.	.	.	.	.	.	.	.	.	.	.	.	.	.	.	.
.	.	16C~	.	16c~	.	16f~	.	16g~	.	.	.	.	.	.	.	.	.	.	.	.	.	.	.	.	.	.	.	.
.	.	16C~LL	.	16c~LL	.	16e~LL	.	16g~LL	.	.	.	.	.	.	.	.	.	.	.	.	.	.	.	.	.	.	.	.
.	.	16C~JJ	.	16c~JJ	.	16e~JJ	.	16g~JJ	.	.	.	.	.	.	.	.	.	.	.	.	.	.	.	.	.	.	.	.
.	.	16r	.	16r	.	16r	.	16r	.	.	.	.	.	.	.	.	.	.	.	.	.	.	.	.	.	.	.	.
.	.	16C~	.	16c~	.	16e~	.	16g~	.	.	.	.	.	.	.	.	.	.	.	.	.	.	.	.	.	.	.	.
8r	.	16C~LL	.	16c~LL	.	16e~LL	.	16g~LL	.	.	.	.	.	.	.	.	.	.	.	.	.	.	.	.	16aLL	mf	.	.
.	.	16C~	.	16c~	.	16e~	.	16g~	.	.	.	.	.	.	.	.	.	.	.	.	.	.	.	.	16g	.	.	.
16C~LL	mf	16C~	.	16c~	.	16e~	.	16g~	.	.	.	.	.	.	.	.	.	.	.	.	.	.	.	.	16f	.	.	.
16C~JJ	.	16C~JJ	.	16c~JJ	.	16e~JJ	.	16g~JJ	.	.	.	.	.	.	.	.	.	.	.	.	.	.	.	.	16gJJ	.	.	.
=9	=9	=9	=9	=9	=9	=9	=9	=9	=9	=9	=9	=9	=9	=9	=9	=9	=9	=9	=9	=9	=9	=9	=9	=9	=9	=9	=9	=9
16F~LL	.	16F~LL	.	16c~LL	.	16f~LL	.	16a~LL	.	1r	.	1r	.	.	1r	1r	.	1r	1r	.	1r	.	1r	.	4.a	.	1r	.
16F~JJ	.	16F~JJ	.	16c~JJ	.	16f~JJ	.	16a~JJ	.	.	.	.	.	.	.	.	.	.	.	.	.	.	.	.	.	.	.	.
16r	.	16r	.	16r	.	16r	.	16r	.	.	.	.	.	.	.	.	.	.	.	.	.	.	.	.	.	.	.	.
16F~	.	16F~	.	16c~	.	16f~	.	16a~	.	.	.	.	.	.	.	.	.	.	.	.	.	.	.	.	.	.	.	.
16F~LL	.	16F~LL	.	16c~LL	.	16f~LL	.	16a~LL	.	.	.	.	.	.	.	.	.	.	.	.	.	.	.	.	.	.	.	.
16F~JJ	.	16F~JJ	.	16c~JJ	.	16f~JJ	.	16a~JJ	.	.	.	.	.	.	.	.	.	.	.	.	.	.	.	.	.	.	.	.
16r	.	16r	.	16r	.	16r	.	16r	.	.	.	.	.	.	.	.	.	.	.	.	.	.	.	.	8g	.	.	.
16F~	.	16F~	.	16c~	.	16f~	.	16a~	.	.	.	.	.	.	.	.	.	.	.	.	.	.	.	.	.	.	.	.
16F~LL	.	16F~LL	.	16c~LL	.	16f~LL	.	16a~LL	.	.	.	.	.	.	.	.	.	.	.	.	.	.	.	.	8fL	.	.	.
16F~JJ	.	16F~JJ	.	16c~JJ	.	16f~JJ	.	16a~JJ	.	.	.	.	.	.	.	.	.	.	.	.	.	.	.	.	.	.	.	.
16r	.	16r	.	16r	.	16r	.	16r	.	.	.	.	.	.	.	.	.	.	.	.	.	.	.	.	8c	.	.	.
16F~	.	16F~	.	16c~	.	16f~	.	16a~	.	.	.	.	.	.	.	.	.	.	.	.	.	.	.	.	.	.	.	.
16F~LL	.	16F~LL	.	16c~LL	.	16f~LL	.	16a~LL	.	.	.	.	.	.	.	.	.	.	.	.	.	.	.	.	8f	.	.	.
16F~	.	16F~	.	16c~	.	16f~	.	16a~	.	.	.	.	.	.	.	.	.	.	.	.	.	.	.	.	.	.	.	.
16F~	.	16F~	.	16c~	.	16f~	.	16a~	.	.	.	.	.	.	.	.	.	.	.	.	.	.	.	.	8aJ	.	.	.
16F~JJ	.	16F~JJ	.	16c~JJ	.	16f~JJ	.	16a~JJ	.	.	.	.	.	.	.	.	.	.	.	.	.	.	.	.	.	.	.	.
=10	=10	=10	=10	=10	=10	=10	=10	=10	=10	=10	=10	=10	=10	=10	=10	=10	=10	=10	=10	=10	=10	=10	=10	=10	=10	=10	=10	=10
16C~LL	.	16C~LL	.	16c~LL	.	16f~LL	.	16g~LL	.	1r	.	1r	.	.	1r	1r	.	1r	1r	.	1r	.	1r	.	2g	.	1r	.
16C~JJ	.	16C~JJ	.	16c~JJ	.	16f~JJ	.	16g~JJ	.	.	.	.	.	.	.	.	.	.	.	.	.	.	.	.	.	.	.	.
16r	.	16r	.	16r	.	16r	.	16r	.	.	.	.	.	.	.	.	.	.	.	.	.	.	.	.	.	.	.	.
16C~	.	16C~	.	16c~	.	16f~	.	16g~	.	.	.	.	.	.	.	.	.	.	.	.	.	.	.	.	.	.	.	.
16C~LL	.	16C~LL	.	16c~LL	.	16f~LL	.	16g~LL	.	.	.	.	.	.	.	.	.	.	.	.	.	.	.	.	.	.	.	.
16C~JJ	.	16C~JJ	.	16c~JJ	.	16f~JJ	.	16g~JJ	.	.	.	.	.	.	.	.	.	.	.	.	.	.	.	.	.	.	.	.
16r	.	16r	.	16r	.	16r	.	16r	.	.	.	.	.	.	.	.	.	.	.	.	.	.	.	.	.	.	.	.
16C~	.	16C~	.	16c~	.	16f~	.	16g~	.	.	.	.	.	.	.	.	.	.	.	.	.	.	.	.	.	.	.	.
16C~LL	.	16C~LL	.	16c~LL	.	16e~LL	.	16g~LL	.	.	.	.	.	.	.	.	.	.	.	.	.	.	.	.	4r	.	.	.
16C~JJ	.	16C~JJ	.	16c~JJ	.	16e~JJ	.	16g~JJ	.	.	.	.	.	.	.	.	.	.	.	.	.	.	.	.	.	.	.	.
16r	.	16r	.	16r	.	16r	.	16r	.	.	.	.	.	.	.	.	.	.	.	.	.	.	.	.	.	.	.	.
16C~	.	16C~	.	16c~	.	16e~	.	16g~	.	.	.	.	.	.	.	.	.	.	.	.	.	.	.	.	.	.	.	.
16C~LL	.	16C~LL	.	16c~LL	.	16e~LL	.	16g~LL	.	.	.	.	.	.	.	.	.	.	.	.	.	.	.	.	8gL	.	.	.
16C~	.	16C~	.	16c~	.	16e~	.	16g~	.	.	.	.	.	.	.	.	.	.	.	.	.	.	.	.	.	.	.	.
16C~	.	16C~	.	16c~	.	16e~	.	16g~	.	.	.	.	.	.	.	.	.	.	.	.	.	.	.	.	8aJ	.	.	.
16C~JJ	.	16C~JJ	.	16c~JJ	.	16e~JJ	.	16g~JJ	.	.	.	.	.	.	.	.	.	.	.	.	.	.	.	.	.	.	.	.
=11	=11	=11	=11	=11	=11	=11	=11	=11	=11	=11	=11	=11	=11	=11	=11	=11	=11	=11	=11	=11	=11	=11	=11	=11	=11	=11	=11	=11
16G~LL	.	16G~LL	.	16d~LL	.	16g~LL	.	16b-~LL	.	1r	.	1r	.	.	1r	1r	.	1r	1r	.	1r	.	1r	.	4.b-	.	1r	.
16G~JJ	.	16G~JJ	.	16d~JJ	.	16g~JJ	.	16b-~JJ	.	.	.	.	.	.	.	.	.	.	.	.	.	.	.	.	.	.	.	.
16r	.	16r	.	16r	.	16r	.	16r	.	.	.	.	.	.	.	.	.	.	.	.	.	.	.	.	.	.	.	.
16G~	.	16G~	.	16d~	.	16g~	.	16b-~	.	.	.	.	.	.	.	.	.	.	.	.	.	.	.	.	.	.	.	.
16G~LL	.	16G~LL	.	16d~LL	.	16g~LL	.	16b-~LL	.	.	.	.	.	.	.	.	.	.	.	.	.	.	.	.	.	.	.	.
16G~JJ	.	16G~JJ	.	16d~JJ	.	16g~JJ	.	16b-~JJ	.	.	.	.	.	.	.	.	.	.	.	.	.	.	.	.	.	.	.	.
16r	.	16r	.	16r	.	16r	.	16r	.	.	.	.	.	.	.	.	.	.	.	.	.	.	.	.	8a	.	.	.
16G~	.	16G~	.	16d~	.	16g~	.	16b-~	.	.	.	.	.	.	.	.	.	.	.	.	.	.	.	.	.	.	.	.
16G~LL	.	16G~LL	.	16d~LL	.	16g~LL	.	16b-~LL	.	.	.	.	.	.	.	.	.	.	.	.	.	.	.	.	8gL	.	.	.
16G~JJ	.	16G~JJ	.	16d~JJ	.	16g~JJ	.	16b-~JJ	.	.	.	.	.	.	.	.	.	.	.	.	.	.	.	.	.	.	.	.
16r	.	16r	.	16r	.	16r	.	16r	.	.	.	.	.	.	.	.	.	.	.	.	.	.	.	.	8d	.	.	.
16G~	.	16G~	.	16d~	.	16g~	.	16b-~	.	.	.	.	.	.	.	.	.	.	.	.	.	.	.	.	.	.	.	.
16G~LL	.	16G~LL	.	16d~LL	.	16g~LL	.	16b-~LL	.	.	.	.	.	.	.	.	.	.	.	.	.	.	.	.	8f	.	.	.
16G~	.	16G~	.	16d~	.	16g~	.	16b-~	.	.	.	.	.	.	.	.	.	.	.	.	.	.	.	.	.	.	.	.
16G~	.	16G~	.	16d~	.	16g~	.	16b-~	.	.	.	.	.	.	.	.	.	.	.	.	.	.	.	.	[8gJ	.	.	.
16G~JJ	.	16G~JJ	.	16d~JJ	.	16g~JJ	.	16b-~JJ	.	.	.	.	.	.	.	.	.	.	.	.	.	.	.	.	.	.	.	.
=12	=12	=12	=12	=12	=12	=12	=12	=12	=12	=12	=12	=12	=12	=12	=12	=12	=12	=12	=12	=12	=12	=12	=12	=12	=12	=12	=12	=12
16D~LL	.	16D~LL	.	16d~LL	.	16g~LL	.	16a~LL	.	1r	.	1r	.	.	1r	1r	.	1r	1r	.	1r	.	1r	.	4g]	.	2.r	.
16D~JJ	.	16D~JJ	.	16d~JJ	.	16g~JJ	.	16a~JJ	.	.	.	.	.	.	.	.	.	.	.	.	.	.	.	.	.	.	.	.
16r	.	16r	.	16r	.	16r	.	16r	.	.	.	.	.	.	.	.	.	.	.	.	.	.	.	.	.	.	.	.
16D~	.	16D~	.	16d~	.	16g~	.	16a~	.	.	.	.	.	.	.	.	.	.	.	.	.	.	.	.	.	.	.	.
16D~LL	.	16D~LL	.	16d~LL	.	16g~LL	.	16a~LL	.	.	.	.	.	.	.	.	.	.	.	.	.	.	.	.	2a	.	.	.
16D~JJ	.	16D~JJ	.	16d~JJ	.	16g~JJ	.	16a~JJ	.	.	.	.	.	.	.	.	.	.	.	.	.	.	.	.	.	.	.	.
16r	.	16r	.	16r	.	16r	.	16r	.	.	.	.	.	.	.	.	.	.	.	.	.	.	.	.	.	.	.	.
16D~	.	16D~	.	16d~	.	16g~	.	16a~	.	.	.	.	.	.	.	.	.	.	.	.	.	.	.	.	.	.	.	.
16D~LL	.	16D~LL	.	16d~LL	.	16f~LL	.	16a~LL	.	.	.	.	.	.	.	.	.	.	.	.	.	.	.	.	.	.	.	.
16D~JJ	.	16D~JJ	.	16d~JJ	.	16f~JJ	.	16a~JJ	.	.	.	.	.	.	.	.	.	.	.	.	.	.	.	.	.	.	.	.
16r	.	16r	.	16r	.	16r	.	16r	.	.	.	.	.	.	.	.	.	.	.	.	.	.	.	.	.	.	.	.
16D~	.	16D~	.	16d~	.	16f~	.	16a~	.	.	.	.	.	.	.	.	.	.	.	.	.	.	.	.	.	.	.	.
16D~LL	.	16D~LL	.	16d~LL	.	16f~LL	.	16a~LL	.	.	.	.	.	.	.	.	.	.	.	.	.	.	.	.	4r	.	8r	.
16D~	.	16D~	.	16d~	.	16f~	.	16a~	.	.	.	.	.	.	.	.	.	.	.	.	.	.	.	.	.	.	.	.
16D~	.	16D~	.	16c~	.	16f~	.	16a~	.	.	.	.	.	.	.	.	.	.	.	.	.	.	.	.	.	.	16ggLL	mf
16D~JJ	.	16D~JJ	.	16c~JJ	.	16f~JJ	.	16a~JJ	.	.	.	.	.	.	.	.	.	.	.	.	.	.	.	.	.	.	16ffJJ	.
=13	=13	=13	=13	=13	=13	=13	=13	=13	=13	=13	=13	=13	=13	=13	=13	=13	=13	=13	=13	=13	=13	=13	=13	=13	=13	=13	=13	=13
16E-X~LL	.	16E-X~LL	.	16B-~LL	.	16f~LL	.	16g~LL	.	1r	.	1r	.	.	1r	1r	.	1r	1r	.	1r	.	1r	.	1r	.	4.gg	.
16E-~JJ	.	16E-~JJ	.	16B-~JJ	.	16f~JJ	.	16g~JJ	.	.	.	.	.	.	.	.	.	.	.	.	.	.	.	.	.	.	.	.
16r	.	16r	.	16r	.	16r	.	16r	.	.	.	.	.	.	.	.	.	.	.	.	.	.	.	.	.	.	.	.
16E-~	.	16E-~	.	16B-~	.	16f~	.	16g~	.	.	.	.	.	.	.	.	.	.	.	.	.	.	.	.	.	.	.	.
16E-~LL	.	16E-~LL	.	16B-~LL	.	16f~LL	.	16g~LL	.	.	.	.	.	.	.	.	.	.	.	.	.	.	.	.	.	.	.	.
16E-~JJ	.	16E-~JJ	.	16B-~JJ	.	16f~JJ	.	16g~JJ	.	.	.	.	.	.	.	.	.	.	.	.	.	.	.	.	.	.	.	.
16r	.	16r	.	16r	.	16r	.	16r	.	.	.	.	.	.	.	.	.	.	.	.	.	.	.	.	.	.	8ff	.
16E-~	.	16E-~	.	16B-~	.	16f~	.	16g~	.	.	.	.	.	.	.	.	.	.	.	.	.	.	.	.	.	.	.	.
16E-~LL	.	16E-~LL	.	16B-~LL	.	16e-X~LL	.	16g~LL	.	.	.	.	.	.	.	.	.	.	.	.	.	.	.	.	.	.	8ee-XL	.
16E-~JJ	.	16E-~JJ	.	16B-~JJ	.	16e-~JJ	.	16g~JJ	.	.	.	.	.	.	.	.	.	.	.	.	.	.	.	.	.	.	.	.
16r	.	16r	.	16r	.	16r	.	16r	.	.	.	.	.	.	.	.	.	.	.	.	.	.	.	.	.	.	8b-	.
16E-~	.	16E-~	.	16B-~	.	16e-~	.	16g~	.	.	.	.	.	.	.	.	.	.	.	.	.	.	.	.	.	.	.	.
16E-~LL	.	16E-~LL	.	16B-~LL	.	16e-~LL	.	16g~LL	.	.	.	.	.	.	.	.	.	.	.	.	.	.	.	.	.	.	8ee-	.
16E-~	.	16E-~	.	16B-~	.	16e-~	.	16g~	.	.	.	.	.	.	.	.	.	.	.	.	.	.	.	.	.	.	.	.
16E-~	.	16E-~	.	16B-~	.	16e-~	.	16g~	.	.	.	.	.	.	.	.	.	.	.	.	.	.	.	.	.	.	8ggJ	.
16E-~JJ	.	16E-~JJ	.	16B-~JJ	.	16e-~JJ	.	16g~JJ	.	.	.	.	.	.	.	.	.	.	.	.	.	.	.	.	.	.	.	.
=14	=14	=14	=14	=14	=14	=14	=14	=14	=14	=14	=14	=14	=14	=14	=14	=14	=14	=14	=14	=14	=14	=14	=14	=14	=14	=14	=14	=14
16BB-~LL	.	16BB-~LL	.	16B-~LL	.	16e-X~LL	.	16f~LL	.	1r	.	1r	.	.	1r	1r	.	1r	1r	.	1r	.	1r	.	1r	.	(4ff	.
16BB-~JJ	.	16BB-~JJ	.	16B-~JJ	.	16e-~JJ	.	16f~JJ	.	.	.	.	.	.	.	.	.	.	.	.	.	.	.	.	.	.	.	.
16r	.	16r	.	16r	.	16r	.	16r	.	.	.	.	.	.	.	.	.	.	.	.	.	.	.	.	.	.	.	.
16BB-~	.	16BB-~	.	16B-~	.	16e-~	.	16f~	.	.	.	.	.	.	.	.	.	.	.	.	.	.	.	.	.	.	.	.
16BB-~LL	.	16BB-~LL	.	16B-~LL	.	16e-~LL	.	16f~LL	.	.	.	.	.	.	.	.	.	.	.	.	.	.	.	.	.	.	16ffLL)	.
16BB-~JJ	.	16BB-~JJ	.	16B-~JJ	.	16e-~JJ	.	16f~JJ	.	.	.	.	.	.	.	.	.	.	.	.	.	.	.	.	.	.	16ee-X	.
16r	.	16r	.	16r	.	16r	.	16r	.	.	.	.	.	.	.	.	.	.	.	.	.	.	.	.	.	.	16dd	.
16BB-~	.	16BB-~	.	16B-~	.	16e-~	.	16f~	.	.	.	.	.	.	.	.	.	.	.	.	.	.	.	.	.	.	16ccJJ	.
16BB-~LL	.	16BB-~LL	.	16B-~LL	.	16d~LL	.	16f~LL	.	.	.	.	.	.	.	.	.	.	.	.	.	.	.	.	.	.	4b-	.
16BB-~JJ	.	16BB-~JJ	.	16B-~JJ	.	16d~JJ	.	16f~JJ	.	.	.	.	.	.	.	.	.	.	.	.	.	.	.	.	.	.	.	.
16r	.	16r	.	16r	.	16r	.	16r	.	.	.	.	.	.	.	.	.	.	.	.	.	.	.	.	.	.	.	.
16BB-~	.	16BB-~	.	16B-~	.	16d~	.	16f~	.	.	.	.	.	.	.	.	.	.	.	.	.	.	.	.	.	.	.	.
16BB-~LL	.	16BB-~LL	.	16B-~LL	.	16d~LL	.	16f~LL	.	.	.	.	.	.	.	.	.	.	.	.	.	.	.	.	.	.	8r	.
16BB-~	.	16BB-~	.	16B-~	.	16d~	.	16f~	.	.	.	.	.	.	.	.	.	.	.	.	.	.	.	.	.	.	.	.
16BB-~	.	16BB-~	.	16B-~	.	16d~	.	16f~	.	.	.	.	.	.	.	.	.	.	.	.	.	.	.	.	.	.	16ddLL	.
16BB-~JJ	.	16BB-~JJ	.	16B-~JJ	.	16d~JJ	.	16f~JJ	.	.	.	.	.	.	.	.	.	.	.	.	.	.	.	.	.	.	16ee-JJ	.
=15	=15	=15	=15	=15	=15	=15	=15	=15	=15	=15	=15	=15	=15	=15	=15	=15	=15	=15	=15	=15	=15	=15	=15	=15	=15	=15	=15	=15
16D-X~LL	.	16D-X~LL	.	16A-X~LL	.	16d-X~LL	.	16f~LL	.	1r	.	1r	.	.	1r	1r	.	1r	1r	.	1r	.	1r	.	1r	.	4.ff	.
16D-~JJ	.	16D-~JJ	.	16A-~JJ	.	16d-~JJ	.	16f~JJ	.	.	.	.	.	.	.	.	.	.	.	.	.	.	.	.	.	.	.	.
16r	.	16r	.	16r	.	16r	.	16r	.	.	.	.	.	.	.	.	.	.	.	.	.	.	.	.	.	.	.	.
16D-~	.	16D-~	.	16A-~	.	16d-~	.	16f~	.	.	.	.	.	.	.	.	.	.	.	.	.	.	.	.	.	.	.	.
16D-~LL	.	16D-~LL	.	16A-~LL	.	16d-~LL	.	16f~LL	.	.	.	.	.	.	.	.	.	.	.	.	.	.	.	.	.	.	.	.
16D-~JJ	.	16D-~JJ	.	16A-~JJ	.	16d-~JJ	.	16f~JJ	.	.	.	.	.	.	.	.	.	.	.	.	.	.	.	.	.	.	.	.
16r	.	16r	.	16r	.	16r	.	16r	.	.	.	.	.	.	.	.	.	.	.	.	.	.	.	.	.	.	8ee-X	.
16D-~	.	16D-~	.	16A-~	.	16d-~	.	16f~	.	.	.	.	.	.	.	.	.	.	.	.	.	.	.	.	.	.	.	.
16D-~LL	.	16D-~LL	.	16A-~LL	.	16d-~LL	.	16f~LL	.	.	.	.	.	.	.	.	.	.	.	.	.	.	.	.	.	.	8ffL	.
16D-~JJ	.	16D-~JJ	.	16A-~JJ	.	16d-~JJ	.	16f~JJ	.	.	.	.	.	.	.	.	.	.	.	.	.	.	.	.	.	.	.	.
16r	.	16r	.	16r	.	16r	.	16r	.	.	.	.	.	.	.	.	.	.	.	.	.	.	.	.	.	.	8gg	.
16D-~	.	16D-~	.	16A-~	.	16d-~	.	16f~	.	.	.	.	.	.	.	.	.	.	.	.	.	.	.	.	.	.	.	.
16D-~LL	.	16D-~LL	.	16A-~LL	.	16d-~LL	.	16f~LL	.	.	.	.	.	.	.	.	.	.	.	.	.	.	.	.	.	.	8aa-X	.
16D-~	.	16D-~	.	16A-~	.	16d-~	.	16f~	.	.	.	.	.	.	.	.	.	.	.	.	.	.	.	.	.	.	.	.
16D-~	.	16D-~	.	16A-~	.	16d-~	.	16f~	.	.	.	.	.	.	.	.	.	.	.	.	.	.	.	.	.	.	8bb-J	.
16D-~JJ	.	16D-~JJ	.	16A-~JJ	.	16d-~JJ	.	16f~JJ	.	.	.	.	.	.	.	.	.	.	.	.	.	.	.	.	.	.	.	.
=16	=16	=16	=16	=16	=16	=16	=16	=16	=16	=16	=16	=16	=16	=16	=16	=16	=16	=16	=16	=16	=16	=16	=16	=16	=16	=16	=16	=16
*	*	*	*	*	*	*	*	*	*	*^	*	*^	*	*	*	*	*	*	*	*	*	*	*	*	*	*	*	*
16C~LL	.	16C~LL	.	16c~LL	.	16f~LL	.	16g~LL	.	2.r	2.r	.	2.r	2.r	.	.	1r	1r	.	1r	1r	.	1r	.	1r	.	1r	.	2.ccc	.
16C~JJ	.	16C~JJ	.	16c~JJ	.	16f~JJ	.	16g~JJ	.	.	.	.	.	.	.	.	.	.	.	.	.	.	.	.	.	.	.	.	.	.
16r	.	16r	.	16r	.	16r	.	16r	.	.	.	.	.	.	.	.	.	.	.	.	.	.	.	.	.	.	.	.	.	.
16C~	.	16C~	.	16c~	.	16f~	.	16g~	.	.	.	.	.	.	.	.	.	.	.	.	.	.	.	.	.	.	.	.	.	.
16C~LL	.	16C~LL	.	16c~LL	.	16f~LL	.	16g~LL	.	.	.	.	.	.	.	.	.	.	.	.	.	.	.	.	.	.	.	.	.	.
16C~JJ	.	16C~JJ	.	16c~JJ	.	16f~JJ	.	16g~JJ	.	.	.	.	.	.	.	.	.	.	.	.	.	.	.	.	.	.	.	.	.	.
16r	.	16r	.	16r	.	16r	.	16r	.	.	.	.	.	.	.	.	.	.	.	.	.	.	.	.	.	.	.	.	.	.
16C~	.	16C~	.	16c~	.	16f~	.	16g~	.	.	.	.	.	.	.	.	.	.	.	.	.	.	.	.	.	.	.	.	.	.
4C	.	4C	.	4c	.	4e	.	4g	.	.	.	.	.	.	.	.	.	.	.	.	.	.	.	.	.	.	.	.	.	.
4r	.	8r	.	8r	.	8r	.	8r	.	8r	8r	.	8r	8r	.	.	.	.	.	.	.	.	.	.	.	.	.	.	4r	.
.	.	8C	.	8B-	.	8c	.	8e	.	8B-	8C	mf mf	8e	8c	Stwo-	mf mf	.	.	.	.	.	.	.	.	.	.	.	.	.	.
=17||	=17||	=17||	=17||	=17||	=17||	=17||	=17||	=17||	=17||	=17||	=17||	=17||	=17||	=17||	=17||	=17||	=17||	=17||	=17||	=17||	=17||	=17||	=17||	=17||	=17||	=17||	=17||	=17||	=17||	=17||
1r	.	4.D	.	4.A	.	4.d	.	4.f	.	4.A	4.D	.	4.f	4.d	-rze-	.	1r	1r	.	1r	1r	.	1r	.	1r	.	1r	.	1r	.
.	.	8D	.	8A	.	8d	.	8f	.	8A	8D	.	8f	8d	-ni	.	.	.	.	.	.	.	.	.	.	.	.	.	.	.
.	.	4C	.	4c	.	8eL	.	8gL	.	4c	4C	.	8gL	8eL	na	.	.	.	.	.	.	.	.	.	.	.	.	.	.	.
.	.	.	.	.	.	8fJ	.	8aJ	.	.	.	.	8aJ	8fJ	.	.	.	.	.	.	.	.	.	.	.	.	.	.	.	.
.	.	4E	.	4c	.	4g	.	4b-	.	4c	4E	.	4b-	4g	Twój	.	.	.	.	.	.	.	.	.	.	.	.	.	.	.
=18	=18	=18	=18	=18	=18	=18	=18	=18	=18	=18	=18	=18	=18	=18	=18	=18	=18	=18	=18	=18	=18	=18	=18	=18	=18	=18	=18	=18	=18	=18
1r	.	2F	.	(4c	.	2g	.	2b-	.	(4c	2F	.	2b-	2g	o-	.	1r	1r	.	1r	1r	.	8FFL	mf	1r	.	1r	.	1r	.
.	.	.	.	.	.	.	.	.	.	.	.	.	.	.	.	.	.	.	.	.	.	.	8C	.	.	.	.	.	.	.
.	.	.	.	4d)	.	.	.	.	.	4d)	.	.	.	.	.	.	.	.	.	.	.	.	8F	.	.	.	.	.	.	.
.	.	.	.	.	.	.	.	.	.	.	.	.	.	.	.	.	.	.	.	.	.	.	8cJ	.	.	.	.	.	.	.
.	.	4.F	.	4.c	.	4.f	.	4.a	.	4.c	4.F	.	4.a	4.f	-braz,	.	.	.	.	.	.	.	8AL	.	.	.	.	.	.	.
.	.	.	.	.	.	.	.	.	.	.	.	.	.	.	.	.	.	.	.	.	.	.	8G	.	.	.	.	.	.	.
.	.	.	.	.	.	.	.	.	.	.	.	.	.	.	.	.	.	.	.	.	.	.	8F	.	.	.	.	.	.	.
.	.	8E	.	8c	.	8e	.	8g	.	8c	8E	.	8g	8e	na	.	.	.	.	.	.	.	8EJ	.	.	.	.	.	.	.
=19	=19	=19	=19	=19	=19	=19	=19	=19	=19	=19	=19	=19	=19	=19	=19	=19	=19	=19	=19	=19	=19	=19	=19	=19	=19	=19	=19	=19	=19	=19
1r	.	4.D	.	(8cL	.	4.d	.	4.f	.	8cL	4.D	.	4.f	4.d	Two-	.	1r	1r	.	1r	1r	.	4.D	.	1r	.	1r	.	1r	.
.	.	.	.	8B-J)	.	.	.	.	.	8B-	.	.	.	.	.	.	.	.	.	.	.	.	.	.	.	.	.	.	.	.
.	.	.	.	4A	.	.	.	.	.	8AJ	.	.	.	.	.	.	.	.	.	.	.	.	.	.	.	.	.	.	.	.
.	.	8D	.	.	.	8d	.	8f	.	8A	8D	.	8f	8d	-je	.	.	.	.	.	.	.	16ELL	.	.	.	.	.	.	.
.	.	.	.	.	.	.	.	.	.	.	.	.	.	.	.	.	.	.	.	.	.	.	16FJJ	.	.	.	.	.	.	.
.	.	4C	.	4c	.	8eL	.	8gL	.	4c	4C	.	8gL	8eL	po-	.	.	.	.	.	.	.	8C'L	.	.	.	.	.	.	.
.	.	.	.	.	.	8fJ	.	8aJ	.	.	.	.	8aJ	8fJ	.	.	.	.	.	.	.	.	8GG'	.	.	.	.	.	.	.
.	.	4E	.	4c	.	4g	.	4b-	.	4c	4E	.	4b-	4g	-do-	.	.	.	.	.	.	.	8C'	.	.	.	.	.	.	.
.	.	.	.	.	.	.	.	.	.	.	.	.	.	.	.	.	.	.	.	.	.	.	8E'J	.	.	.	.	.	.	.
=20	=20	=20	=20	=20	=20	=20	=20	=20	=20	=20	=20	=20	=20	=20	=20	=20	=20	=20	=20	=20	=20	=20	=20	=20	=20	=20	=20	=20	=20	=20
1r	.	2F	.	(4c	.	2g	.	2b-	.	(4c	2F	.	2b-	2g	-bień-	.	1r	1r	.	1r	1r	.	[4F	.	1r	.	2.r	.	1r	.
.	.	.	.	4d)	.	.	.	.	.	4d)	.	.	.	.	.	.	.	.	.	.	.	.	16FLL]	.	.	.	.	.	.	.
.	.	.	.	.	.	.	.	.	.	.	.	.	.	.	.	.	.	.	.	.	.	.	16BB-	.	.	.	.	.	.	.
.	.	.	.	.	.	.	.	.	.	.	.	.	.	.	.	.	.	.	.	.	.	.	16AA	.	.	.	.	.	.	.
.	.	.	.	.	.	.	.	.	.	.	.	.	.	.	.	.	.	.	.	.	.	.	16GGJJ	.	.	.	.	.	.	.
.	.	4F	.	4c	.	4f	.	4a	.	4c	4F	.	4a	4f	-stwo;	.	.	.	.	.	.	.	4FF	.	.	.	.	.	.	.
.	.	8AAL	.	8FL	.	8cL	.	8gL	.	8FL	8AAL	.	8gL	8cL	Two-	.	.	.	.	.	.	.	4r	.	.	.	8gL	.	.	.
.	.	8AAJ	.	8FJ	.	8cJ	.	8fJ	.	8FJ	8AAJ	.	8fJ	8cJ	-je	.	.	.	.	.	.	.	.	.	.	.	8fJ	.	.	.
=21	=21	=21	=21	=21	=21	=21	=21	=21	=21	=21	=21	=21	=21	=21	=21	=21	=21	=21	=21	=21	=21	=21	=21	=21	=21	=21	=21	=21	=21	=21
1r	.	2BB-	mp	2F	mp	8B-'L	mp	8d'L	mp	4F	4BB-	.	4d	4B-	I-	.	1r	1r	.	1r	1r	.	1r	.	1r	.	4d	.	1r	.
.	.	.	.	.	.	8d'	.	8f'	.	.	.	.	.	.	.	.	.	.	.	.	.	.	.	.	.	.	.	.	.	.
.	.	.	.	.	.	8f'	.	8b-'	.	4F	4BB-	.	4d	4B-	-mię	.	.	.	.	.	.	.	.	.	.	.	4f	.	.	.
.	.	.	.	.	.	8d'J	.	8f'J	.	.	.	.	.	.	.	.	.	.	.	.	.	.	.	.	.	.	.	.	.	.
.	.	2BB-	.	2G	.	8c'L	.	8e'L	.	4G	4BB-	.	4e	4c	wy-	.	.	.	.	.	.	.	.	.	.	.	4e	.	.	.
.	.	.	.	.	.	8e'	.	8g'	.	.	.	.	.	.	.	.	.	.	.	.	.	.	.	.	.	.	.	.	.	.
.	.	.	.	.	.	8g'	.	8cc'	.	4G	4BB-	.	4e	4c	-pi-	.	.	.	.	.	.	.	.	.	.	.	4g	.	.	.
.	.	.	.	.	.	8e'J	.	8g'J	.	.	.	.	.	.	.	.	.	.	.	.	.	.	.	.	.	.	.	.	.	.
=22	=22	=22	=22	=22	=22	=22	=22	=22	=22	=22	=22	=22	=22	=22	=22	=22	=22	=22	=22	=22	=22	=22	=22	=22	=22	=22	=22	=22	=22	=22
1r	.	2AA	.	4G	.	8c'L	.	8f'L	.	4G	4AA	.	4f	4c	-sa-	.	1r	1r	.	1r	1r	.	1r	.	1r	.	4f	.	1r	.
.	.	.	.	.	.	8f'	.	8cc'	.	.	.	.	.	.	.	.	.	.	.	.	.	.	.	.	.	.	.	.	.	.
.	.	.	.	2F	.	8a'	.	8ff'	.	4F	4AA	.	4f	4c	-ne	.	.	.	.	.	.	.	.	.	.	.	4a	.	.	.
.	.	.	.	.	.	8f'J	.	8cc'J	.	.	.	.	.	.	.	.	.	.	.	.	.	.	.	.	.	.	.	.	.	.
.	.	2AA-X	.	.	.	8c'L	.	8a-X'L	.	4F	4AA-X	.	4f	4c	w na-	.	.	.	.	.	.	.	.	.	.	.	4ff	.	.	.
.	.	.	.	.	.	8a-X'	.	8cc'	.	.	.	.	.	.	.	.	.	.	.	.	.	.	.	.	.	.	.	.	.	.
.	.	.	.	4c	.	8f'	.	8a-'	.	4c	4AA-	.	4f	4c	-szych	.	.	.	.	.	.	.	.	.	.	.	4cc	.	.	.
.	.	.	.	.	.	8c'J	.	8f'J	.	.	.	.	.	.	.	.	.	.	.	.	.	.	.	.	.	.	.	.	.	.
=23	=23	=23	=23	=23	=23	=23	=23	=23	=23	=23	=23	=23	=23	=23	=23	=23	=23	=23	=23	=23	=23	=23	=23	=23	=23	=23	=23	=23	=23	=23
1r	.	2.GG	mf	(8B-L	mf	2d	mf	1g	mf	(8B-L	(2.GG	.	1g	(2d	ser-	.	1r	1r	.	1r	1r	.	1r	.	1r	.	4.dd	.	1r	.
.	.	.	.	8A)	.	.	.	.	.	8A)	.	.	.	.	.	.	.	.	.	.	.	.	.	.	.	.	.	.	.	.
.	.	.	.	8B-	.	.	.	.	.	8B-	.	.	.	.	.	.	.	.	.	.	.	.	.	.	.	.	.	.	.	.
.	.	.	.	8cJ	.	.	.	.	.	8cJ	.	.	.	.	.	.	.	.	.	.	.	.	.	.	.	.	8cc	.	.	.
.	.	.	.	(8dL	.	(2f	.	.	.	8dL	.	.	.	2f)	.	.	.	.	.	.	.	.	.	.	.	.	8b-L	.	.	.
.	.	.	.	8c	.	.	.	.	.	8c	.	.	.	.	.	.	.	.	.	.	.	.	.	.	.	.	8a	.	.	.
.	.	(8AAL	.	8B-	.	.	.	.	.	8B-	8AAL)	.	.	.	.	.	.	.	.	.	.	.	.	.	.	.	8g	.	.	.
.	.	8BB-J)	.	8AJ)	.	.	.	.	.	8AJ	8BB-J	.	.	.	.	.	.	.	.	.	.	.	.	.	.	.	8fJ	.	.	.
=24	=24	=24	=24	=24	=24	=24	=24	=24	=24	=24	=24	=24	=24	=24	=24	=24	=24	=24	=24	=24	=24	=24	=24	=24	=24	=24	=24	=24	=24	=24
4.r	.	4C	.	4G	.	2f)	.	2.g	.	(4G	2.C	.	2.g	2f	-cach.	.	1r	1r	.	1r	1r	.	1r	.	4.r	.	2.g	.	1r	.
.	.	8r	.	2c	.	.	.	.	.	2c)	.	.	.	.	.	.	.	.	.	.	.	.	.	.	.	.	.	.	.	.
8C	.	8C	.	.	.	.	.	.	.	.	.	.	.	.	.	.	.	.	.	.	.	.	.	.	8g	mf	.	.	.	.
8GL	.	8GL	.	.	.	4e	.	.	.	.	.	.	.	4e	.	.	.	.	.	.	.	.	.	.	8b-L	.	.	.	.	.
8FJ	.	8FJ	.	.	.	.	.	.	.	.	.	.	.	.	.	.	.	.	.	.	.	.	.	.	8aJ	.	.	.	.	.
16ELL	.	16ELL	.	8r	.	8r	.	8r	.	8r	8r	.	8r	8r	.	.	.	.	.	.	.	.	.	.	16gLL	.	4r	.	.	.
16DJ	.	16DJ	.	.	.	.	.	.	.	.	.	.	.	.	.	.	.	.	.	.	.	.	.	.	16f	.	.	.	.	.
8CJ	.	8CJ	.	8B-	.	8c	.	8e	.	8B-	8C	.	8e	8c	Stwo-	.	.	.	.	.	.	.	.	.	16e	.	.	.	.	.
.	.	.	.	.	.	.	.	.	.	.	.	.	.	.	.	.	.	.	.	.	.	.	.	.	16gJJ	.	.	.	.	.
=25	=25	=25	=25	=25	=25	=25	=25	=25	=25	=25	=25	=25	=25	=25	=25	=25	=25	=25	=25	=25	=25	=25	=25	=25	=25	=25	=25	=25	=25	=25
4.D	.	4.D	.	4.A	.	4.d	.	4.f	.	4.A	4.D	.	4.f	4.d	-rze-	.	1r	1r	.	1r	1r	.	1r	.	4.f	.	1r	.	1r	.
8D	.	8D	.	8A	.	8d	.	8f	.	8A	8D	.	8f	8d	-ni	.	.	.	.	.	.	.	.	.	8f	.	.	.	.	.
4C	.	4C	.	4c	.	8eL	.	8gL	.	4c	4C	.	8gL	8eL	na	.	.	.	.	.	.	.	.	.	8gL	.	.	.	.	.
.	.	.	.	.	.	8fJ	.	8aJ	.	.	.	.	8aJ	8fJ	.	.	.	.	.	.	.	.	.	.	8aJ	.	.	.	.	.
4E	.	4E	.	4c	.	4g	.	4b-	.	4c	4E	.	4b-	4g	Twój	.	.	.	.	.	.	.	.	.	16b-LL	.	.	.	.	.
.	.	.	.	.	.	.	.	.	.	.	.	.	.	.	.	.	.	.	.	.	.	.	.	.	16a	.	.	.	.	.
.	.	.	.	.	.	.	.	.	.	.	.	.	.	.	.	.	.	.	.	.	.	.	.	.	16g	.	.	.	.	.
.	.	.	.	.	.	.	.	.	.	.	.	.	.	.	.	.	.	.	.	.	.	.	.	.	16aJJ	.	.	.	.	.
=26	=26	=26	=26	=26	=26	=26	=26	=26	=26	=26	=26	=26	=26	=26	=26	=26	=26	=26	=26	=26	=26	=26	=26	=26	=26	=26	=26	=26	=26	=26
2F	.	2F	.	(4c	.	2g	.	2b-	.	(4c	2F	.	2b-	2g	o-	.	1r	1r	.	1r	1r	.	1r	.	2b-	.	1r	.	8b-L	.
.	.	.	.	.	.	.	.	.	.	.	.	.	.	.	.	.	.	.	.	.	.	.	.	.	.	.	.	.	8cc	.
.	.	.	.	4d)	.	.	.	.	.	4d)	.	.	.	.	.	.	.	.	.	.	.	.	.	.	.	.	.	.	8dd	.
.	.	.	.	.	.	.	.	.	.	.	.	.	.	.	.	.	.	.	.	.	.	.	.	.	.	.	.	.	8ee	.
4.F	.	4.F	.	4.c	.	4.f	.	4.a	.	4.c	4.F	.	4.a	4.f	-braz,	.	.	.	.	.	.	.	.	.	4cc	.	.	.	8ff'J	.
.	.	.	.	.	.	.	.	.	.	.	.	.	.	.	.	.	.	.	.	.	.	.	.	.	.	.	.	.	16ddLL	.
.	.	.	.	.	.	.	.	.	.	.	.	.	.	.	.	.	.	.	.	.	.	.	.	.	.	.	.	.	16eeJJ	.
.	.	.	.	.	.	.	.	.	.	.	.	.	.	.	.	.	.	.	.	.	.	.	.	.	4r	.	.	.	16ffLL	.
.	.	.	.	.	.	.	.	.	.	.	.	.	.	.	.	.	.	.	.	.	.	.	.	.	.	.	.	.	16gg	.
8E	.	8E	.	8c	.	8e	.	8g	.	8c	8E	.	8g	8e	na	.	.	.	.	.	.	.	.	.	.	.	.	.	16aa	.
.	.	.	.	.	.	.	.	.	.	.	.	.	.	.	.	.	.	.	.	.	.	.	.	.	.	.	.	.	16bb-JJ	.
=27	=27	=27	=27	=27	=27	=27	=27	=27	=27	=27	=27	=27	=27	=27	=27	=27	=27	=27	=27	=27	=27	=27	=27	=27	=27	=27	=27	=27	=27	=27
4.D	.	4.D	.	(8cL	.	4.d	.	4.f	.	8cL	4.D	.	4.f	4.d	Two-	.	1r	1r	.	1r	1r	.	1r	.	1r	.	1r	.	8.aaL	.
.	.	.	.	8B-J)	.	.	.	.	.	8B-	.	.	.	.	.	.	.	.	.	.	.	.	.	.	.	.	.	.	.	.
.	.	.	.	.	.	.	.	.	.	.	.	.	.	.	.	.	.	.	.	.	.	.	.	.	.	.	.	.	16ggJk	.
.	.	.	.	4A	.	.	.	.	.	8AJ	.	.	.	.	.	.	.	.	.	.	.	.	.	.	.	.	.	.	4ff	.
8D	.	8D	.	.	.	8d	.	8f	.	8A	8D	.	8f	8d	-je	.	.	.	.	.	.	.	.	.	.	.	.	.	.	.
4C	.	4C	.	4c	.	8eL	.	8gL	.	4c	4C	.	8gL	8eL	po-	.	.	.	.	.	.	.	.	.	.	.	.	.	(8ggL	.
.	.	.	.	.	.	8fJ	.	8aJ	.	.	.	.	8aJ	8fJ	.	.	.	.	.	.	.	.	.	.	.	.	.	.	8ffJ	.
4E	.	4E	.	4c	.	4g	.	4b-	.	4c	4E	.	4b-	4g	-do-	.	.	.	.	.	.	.	.	.	.	.	.	.	16eeLL	.
.	.	.	.	.	.	.	.	.	.	.	.	.	.	.	.	.	.	.	.	.	.	.	.	.	.	.	.	.	16ffJ)	.
.	.	.	.	.	.	.	.	.	.	.	.	.	.	.	.	.	.	.	.	.	.	.	.	.	.	.	.	.	8ggJ	.
=28	=28	=28	=28	=28	=28	=28	=28	=28	=28	=28	=28	=28	=28	=28	=28	=28	=28	=28	=28	=28	=28	=28	=28	=28	=28	=28	=28	=28	=28	=28
2F	.	2F	.	(4c	.	2g	.	2b-	.	(4c	2F	.	2b-	2g	-bień-	.	1r	1r	.	1r	1r	.	1r	.	1r	.	2.r	.	2.ff	.
.	.	.	.	4d)	.	.	.	.	.	4d)	.	.	.	.	.	.	.	.	.	.	.	.	.	.	.	.	.	.	.	.
4F	.	4F	.	4c	.	4f	.	4a	.	4c	4F	.	4a	4f	-stwo;	.	.	.	.	.	.	.	.	.	.	.	.	.	.	.
8AAL	.	8AAL	.	8FL	.	8cL	.	8gL	.	8FL	8AAL	.	8gL	8cL	Two-	.	.	.	.	.	.	.	.	.	.	.	8gL	.	4r	.
8AAJ	.	8AAJ	.	8FJ	.	8cJ	.	8fJ	.	8FJ	8AAJ	.	8fJ	8cJ	-je	.	.	.	.	.	.	.	.	.	.	.	8fJ	.	.	.
=29	=29	=29	=29	=29	=29	=29	=29	=29	=29	=29	=29	=29	=29	=29	=29	=29	=29	=29	=29	=29	=29	=29	=29	=29	=29	=29	=29	=29	=29	=29
2BB-	mp	2BB-	mp	2F	mp	8B-'L	mp	8d'L	mp	4F	4BB-	.	4d	4B-	I-	.	1r	1r	.	1r	1r	.	1r	.	1r	.	4d	.	1r	.
.	.	.	.	.	.	8d'	.	8f'	.	.	.	.	.	.	.	.	.	.	.	.	.	.	.	.	.	.	.	.	.	.
.	.	.	.	.	.	8f'	.	8b-'	.	4F	4BB-	.	4d	4B-	-mię	.	.	.	.	.	.	.	.	.	.	.	4f	.	.	.
.	.	.	.	.	.	8d'J	.	8f'J	.	.	.	.	.	.	.	.	.	.	.	.	.	.	.	.	.	.	.	.	.	.
2BB-	.	2BB-	.	2G	.	8c'L	.	8e'L	.	4G	4BB-	.	4e	4c	wy-	.	.	.	.	.	.	.	.	.	.	.	4e	.	.	.
.	.	.	.	.	.	8e'	.	8g'	.	.	.	.	.	.	.	.	.	.	.	.	.	.	.	.	.	.	.	.	.	.
.	.	.	.	.	.	8g'	.	8cc'	.	4G	4BB-	.	4e	4c	-pi-	.	.	.	.	.	.	.	.	.	.	.	4g	.	.	.
.	.	.	.	.	.	8e'J	.	8g'J	.	.	.	.	.	.	.	.	.	.	.	.	.	.	.	.	.	.	.	.	.	.
=30	=30	=30	=30	=30	=30	=30	=30	=30	=30	=30	=30	=30	=30	=30	=30	=30	=30	=30	=30	=30	=30	=30	=30	=30	=30	=30	=30	=30	=30	=30
2AA	.	2AA	.	4G	.	8c'L	.	8f'L	.	4G	4AA	.	4f	4c	-sa-	.	1r	1r	.	1r	1r	.	1r	.	1r	.	4f	.	1r	.
.	.	.	.	.	.	8f'	.	8cc'	.	.	.	.	.	.	.	.	.	.	.	.	.	.	.	.	.	.	.	.	.	.
.	.	.	.	2F	.	8a'	.	8ff'	.	4F	4AA	.	4f	4c	-ne	.	.	.	.	.	.	.	.	.	.	.	4a	.	.	.
.	.	.	.	.	.	8f'J	.	8cc'J	.	.	.	.	.	.	.	.	.	.	.	.	.	.	.	.	.	.	.	.	.	.
2AA-X	.	2AA-X	.	.	.	8c'L	.	8a-X'L	.	4F	4AA-X	.	4f	4c	w na-	.	.	.	.	.	.	.	.	.	.	.	2cc	.	.	.
.	.	.	.	.	.	8a-X'	.	8cc'	.	.	.	.	.	.	.	.	.	.	.	.	.	.	.	.	.	.	.	.	.	.
.	.	.	.	4c	.	8f'	.	8a-'	.	4c	4AA-	.	4f	4c	-szych	.	.	.	.	.	.	.	.	.	.	.	.	.	.	.
.	.	.	.	.	.	8c'J	.	8f'J	.	.	.	.	.	.	.	.	.	.	.	.	.	.	.	.	.	.	.	.	.	.
=31	=31	=31	=31	=31	=31	=31	=31	=31	=31	=31	=31	=31	=31	=31	=31	=31	=31	=31	=31	=31	=31	=31	=31	=31	=31	=31	=31	=31	=31	=31
(4GG	mf	(4GG	mf	4.B-	mf	4d	mf	2.g	mf	(4.B-	(4GG	.	(2.g	(4d	ser-	.	1r	1r	.	1r	1r	.	1r	.	1r	.	4.b-	.	1r	.
8AAL)	.	8AAL)	.	.	.	4f	.	.	.	.	8AAL)	.	.	4f)	.	.	.	.	.	.	.	.	.	.	.	.	.	.	.	.
8BB-J	.	8BB-J	.	8A	.	.	.	.	.	8A)	8BB-J	.	.	.	.	.	.	.	.	.	.	.	.	.	.	.	8a	.	.	.
2C	.	2C	.	2G	.	2e	.	.	.	2G	2C	.	.	2e	.	.	.	.	.	.	.	.	.	.	.	.	2g	.	.	.
.	.	.	.	.	.	.	.	4f	.	.	.	.	4f)	.	.	.	.	.	.	.	.	.	.	.	.	.	.	.	.	.
=32	=32	=32	=32	=32	=32	=32	=32	=32	=32	=32	=32	=32	=32	=32	=32	=32	=32	=32	=32	=32	=32	=32	=32	=32	=32	=32	=32	=32	=32	=32
2.F	.	2.F	.	2.A	.	2.c	.	2.f	.	2.A	2.F	.	2.f	2.c	-cach.	.	2.r	2.r	.	1r	1r	.	2r	.	2.r	.	2.a	.	1r	.
.	.	.	.	.	.	.	.	.	.	.	.	.	.	.	.	.	.	.	.	.	.	.	8r	.	.	.	.	.	.	.
.	.	.	.	.	.	.	.	.	.	.	.	.	.	.	.	.	.	.	.	.	.	.	8F'L	.	.	.	.	.	.	.
4r	.	4r	.	4r	.	4r	.	4r	.	4r	4r	.	4r	4r	.	.	4c	4cc	Je-	.	.	.	8C'	.	[4cc	.	4r	.	.	.
.	.	.	.	.	.	.	.	.	.	.	.	.	.	.	.	.	.	.	.	.	.	.	8AA'J	.	.	.	.	.	.	.
*	*	*	*	*	*	*	*	*	*	*v	*v	*	*	*	*	*	*	*	*	*	*	*	*	*	*	*	*	*	*	*
=33||	=33||	=33||	=33||	=33||	=33||	=33||	=33||	=33||	=33||	=33||	=33||	=33||	=33||	=33||	=33||	=33||	=33||	=33||	=33||	=33||	=33||	=33||	=33||	=33||	=33||	=33||	=33||	=33||	=33||
1r	.	1r	.	1r	.	1r	.	1r	.	1r	.	1r	1r	.	.	4c	4cc	-steś-	2BB-:	8d:L 8f: 8cc:	f	4BB-	.	8ccL]	.	1r	.	1r	.
.	.	.	.	.	.	.	.	.	.	.	.	.	.	.	.	.	.	.	.	8d	.	.	.	8ddJ	.	.	.	.	.
.	.	.	.	.	.	.	.	.	.	.	.	.	.	.	.	4B-	4b-	-my	.	8f	.	8FL	.	16b-LL	.	.	.	.	.
.	.	.	.	.	.	.	.	.	.	.	.	.	.	.	.	.	.	.	.	.	.	.	.	16a	.	.	.	.	.
.	.	.	.	.	.	.	.	.	.	.	.	.	.	.	.	.	.	.	.	8b-J	.	8B-J	.	16g	.	.	.	.	.
.	.	.	.	.	.	.	.	.	.	.	.	.	.	.	.	.	.	.	.	.	.	.	.	16fJJ	.	.	.	.	.
.	.	.	.	.	.	.	.	.	.	.	.	.	.	.	.	4B-	4b-	Twy-	2F:	8c:L 8f: 8b-:	.	4F'	.	4b-	.	.	.	.	.
.	.	.	.	.	.	.	.	.	.	.	.	.	.	.	.	.	.	.	.	8c	.	.	.	.	.	.	.	.	.
.	.	.	.	.	.	.	.	.	.	.	.	.	.	.	.	4A	4a	-mi	.	8f	.	4FF'	.	8aL	.	.	.	.	.
.	.	.	.	.	.	.	.	.	.	.	.	.	.	.	.	.	.	.	.	8aJ	.	.	.	8fJ	.	.	.	.	.
*	*	*	*	*	*	*	*	*	*	*	*	*v	*v	*	*	*	*	*	*	*	*	*	*	*	*	*	*	*	*
=34	=34	=34	=34	=34	=34	=34	=34	=34	=34	=34	=34	=34	=34	=34	=34	=34	=34	=34	=34	=34	=34	=34	=34	=34	=34	=34	=34	=34
1r	.	1r	.	1r	.	1r	.	1r	.	1r	.	1r	.	.	4A	4a	dzie-	4C: 4G:	8c:L 8f: 8a:	.	8C'L	.	8g'L	.	1r	.	1r	.
.	.	.	.	.	.	.	.	.	.	.	.	.	.	.	.	.	.	.	8c	.	16EL	.	16fL	.	.	.	.	.
.	.	.	.	.	.	.	.	.	.	.	.	.	.	.	.	.	.	.	.	.	16FJJ	.	16eJJ	.	.	.	.	.
.	.	.	.	.	.	.	.	.	.	.	.	.	.	.	2G	2g	-ćmi,	4r	8e	.	8G'L	.	8c'L	.	.	.	.	.
.	.	.	.	.	.	.	.	.	.	.	.	.	.	.	.	.	.	.	8gJ	.	8E'J	.	8g'J	.	.	.	.	.
.	.	.	.	.	.	.	.	.	.	.	.	.	.	.	.	.	.	2r	4cc	.	4c	.	4g	.	.	.	.	.
.	.	.	.	.	.	.	.	.	.	.	.	.	.	.	4A	4a	to	.	4r	.	4C#X	.	8r	.	.	.	.	.
.	.	.	.	.	.	.	.	.	.	.	.	.	.	.	.	.	.	.	.	.	.	.	16aLL	.	.	.	.	.
.	.	.	.	.	.	.	.	.	.	.	.	.	.	.	.	.	.	.	.	.	.	.	16b-JJ	.	.	.	.	.
=35	=35	=35	=35	=35	=35	=35	=35	=35	=35	=35	=35	=35	=35	=35	=35	=35	=35	=35	=35	=35	=35	=35	=35	=35	=35	=35	=35	=35
*	*	*	*	*	*	*	*	*	*	*	*	*	*	*	*	*	*	*^	*	*	*	*	*	*	*	*	*	*
1r	.	1r	.	1r	.	1r	.	1r	.	1r	.	1r	.	.	4A	4f	Ty	8r	2D	4.r	.	4D	.	4a	.	1r	.	1r	.
.	.	.	.	.	.	.	.	.	.	.	.	.	.	.	.	.	.	8F	.	.	.	.	.	.	.	.	.	.	.
.	.	.	.	.	.	.	.	.	.	.	.	.	.	.	4A	4f	nam	16ALL	.	.	.	8r	.	8gL	.	.	.	.	.
.	.	.	.	.	.	.	.	.	.	.	.	.	.	.	.	.	.	16dJJ	.	.	.	.	.	.	.	.	.	.	.
.	.	.	.	.	.	.	.	.	.	.	.	.	.	.	.	.	.	8r	.	16fLL	.	16AALL	.	8fJ	.	.	.	.	.
.	.	.	.	.	.	.	.	.	.	.	.	.	.	.	.	.	.	.	.	16aJJ	.	16DJJ	.	.	.	.	.	.	.
.	.	.	.	.	.	.	.	.	.	.	.	.	.	.	4c	4g	da-	8r	2E	4.r	.	4E	.	4g	.	.	.	.	.
.	.	.	.	.	.	.	.	.	.	.	.	.	.	.	.	.	.	8G	.	.	.	.	.	.	.	.	.	.	.
.	.	.	.	.	.	.	.	.	.	.	.	.	.	.	4c	4g	-łeś	16cLL	.	.	.	4C	.	4b-	.	.	.	.	.
.	.	.	.	.	.	.	.	.	.	.	.	.	.	.	.	.	.	16eJJ	.	.	.	.	.	.	.	.	.	.	.
.	.	.	.	.	.	.	.	.	.	.	.	.	.	.	.	.	.	16r	.	16gLL	.	.	.	.	.	.	.	.	.
.	.	.	.	.	.	.	.	.	.	.	.	.	.	.	.	.	.	16r	.	16ccJJ	.	.	.	.	.	.	.	.	.
=36	=36	=36	=36	=36	=36	=36	=36	=36	=36	=36	=36	=36	=36	=36	=36	=36	=36	=36	=36	=36	=36	=36	=36	=36	=36	=36	=36	=36	=36
1r	.	1r	.	1r	.	1r	.	1r	.	1r	.	1r	.	.	4B-	4g	ży-	1r	2F	8r	.	4F	.	16ccLL	.	1r	.	1r	.
.	.	.	.	.	.	.	.	.	.	.	.	.	.	.	.	.	.	.	.	.	.	.	.	16dd	.	.	.	.	.
.	.	.	.	.	.	.	.	.	.	.	.	.	.	.	.	.	.	.	.	16cLL	.	.	.	16cc	.	.	.	.	.
.	.	.	.	.	.	.	.	.	.	.	.	.	.	.	.	.	.	.	.	16fJJ	.	.	.	16b-JJ	.	.	.	.	.
.	.	.	.	.	.	.	.	.	.	.	.	.	.	.	2c	2a	-cie.	.	.	16aLL	.	4FF	.	16ccLL	.	.	.	.	.
.	.	.	.	.	.	.	.	.	.	.	.	.	.	.	.	.	.	.	.	16cc	.	.	.	16b-	.	.	.	.	.
.	.	.	.	.	.	.	.	.	.	.	.	.	.	.	.	.	.	.	.	16dd	.	.	.	16a	.	.	.	.	.
.	.	.	.	.	.	.	.	.	.	.	.	.	.	.	.	.	.	.	.	16eeJJ	.	.	.	16gJJ	.	.	.	.	.
.	.	.	.	.	.	.	.	.	.	.	.	.	.	.	.	.	.	.	2r	4f: 4a: 4cc: 4ff:	.	4r	.	4a	.	.	.	.	.
.	.	.	.	.	.	.	.	.	.	.	.	.	.	.	8cL	8aL	Po-	.	.	4r	.	8CL	.	4r	.	.	.	.	.
.	.	.	.	.	.	.	.	.	.	.	.	.	.	.	8eJ	8ccJ	-wo-	.	.	.	.	8AAJ	.	.	.	.	.	.	.
*	*	*	*	*	*	*	*	*	*	*	*	*	*	*	*	*	*	*v	*v	*	*	*	*	*	*	*	*	*	*
=37	=37	=37	=37	=37	=37	=37	=37	=37	=37	=37	=37	=37	=37	=37	=37	=37	=37	=37	=37	=37	=37	=37	=37	=37	=37	=37	=37	=37
1r	.	1r	.	1r	.	1r	.	1r	.	1r	.	1r	.	.	4e	4cc	-ła-	2BB-:	8d:L 8f: 8cc:	.	4BB-	.	4r	.	1r	.	1r	.
.	.	.	.	.	.	.	.	.	.	.	.	.	.	.	.	.	.	.	8d	.	.	.	.	.	.	.	.	.
.	.	.	.	.	.	.	.	.	.	.	.	.	.	.	4d	4b-	-łeś	.	8f	.	8FL	.	16dLL	.	.	.	.	.
.	.	.	.	.	.	.	.	.	.	.	.	.	.	.	.	.	.	.	.	.	.	.	16e	.	.	.	.	.
.	.	.	.	.	.	.	.	.	.	.	.	.	.	.	.	.	.	.	8b-J	.	8B-J	.	16f	.	.	.	.	.
.	.	.	.	.	.	.	.	.	.	.	.	.	.	.	.	.	.	.	.	.	.	.	16gJJ	.	.	.	.	.
.	.	.	.	.	.	.	.	.	.	.	.	.	.	.	4d	4b-	do	2F:	8c:L 8f: 8b-: 8cc:	.	4F'	.	4b-	.	.	.	.	.
.	.	.	.	.	.	.	.	.	.	.	.	.	.	.	.	.	.	.	8f	.	.	.	.	.	.	.	.	.
.	.	.	.	.	.	.	.	.	.	.	.	.	.	.	4c	4a	i-	.	8a	.	4FF'	.	8aL	.	.	.	.	.
.	.	.	.	.	.	.	.	.	.	.	.	.	.	.	.	.	.	.	8ccJ	.	.	.	8fJ	.	.	.	.	.
=38	=38	=38	=38	=38	=38	=38	=38	=38	=38	=38	=38	=38	=38	=38	=38	=38	=38	=38	=38	=38	=38	=38	=38	=38	=38	=38	=38	=38
1r	.	2.r	.	2.r	.	2.r	.	1r	.	1r	.	1r	.	.	4c	4a	-stnie-	4C: 4G:	8c:L 8a: 8cc: 8ff:	.	8C'L	.	8g'L	.	1r	.	1r	.
.	.	.	.	.	.	.	.	.	.	.	.	.	.	.	.	.	.	.	8cc	.	16EL	.	16fL	.	.	.	.	.
.	.	.	.	.	.	.	.	.	.	.	.	.	.	.	.	.	.	.	.	.	16FJJ	.	16eJJ	.	.	.	.	.
.	.	.	.	.	.	.	.	.	.	.	.	.	.	.	2c	2g	-nia,	4r	8ee	.	8G'L	.	8c'L	.	.	.	.	.
.	.	.	.	.	.	.	.	.	.	.	.	.	.	.	.	.	.	.	8ffJ	.	8E'J	.	8g'J	.	.	.	.	.
.	.	.	.	.	.	.	.	.	.	.	.	.	.	.	.	.	.	2r	4gg	.	4C	.	4g	.	.	.	.	.
.	.	4AA	mp	4c	mp	4f	mp	.	.	.	.	.	.	.	8cL	8aL	po-	.	4r	.	4r	.	4r	.	.	.	.	.
.	.	.	.	.	.	.	.	.	.	.	.	.	.	.	8eJ	8ccJ	-wo-	.	.	.	.	.	.	.	.	.	.	.
=39	=39	=39	=39	=39	=39	=39	=39	=39	=39	=39	=39	=39	=39	=39	=39	=39	=39	=39	=39	=39	=39	=39	=39	=39	=39	=39	=39	=39
*	*	*	*	*	*	*	*	*	*	*	*	*	*	*	*	*	*	*^	*	*	*	*	*	*	*	*	*	*
1r	.	2BB-	.	2B-	.	2f	.	1r	.	1r	.	1r	.	.	4f	4dd	-ła-	16r	2BB-	4.r	.	4BB-	.	8fL	.	1r	.	1r	.
.	.	.	.	.	.	.	.	.	.	.	.	.	.	.	.	.	.	16dLL	.	.	.	.	.	.	.	.	.	.	.
.	.	.	.	.	.	.	.	.	.	.	.	.	.	.	.	.	.	16F	.	.	.	.	.	16b-L	.	.	.	.	.
.	.	.	.	.	.	.	.	.	.	.	.	.	.	.	.	.	.	16B-JJ	.	.	.	.	.	16ccJJ	.	.	.	.	.
.	.	.	.	.	.	.	.	.	.	.	.	.	.	.	4f	4dd	-łeś	16dLL	.	.	.	8B-L	.	[4dd	.	.	.	.	.
.	.	.	.	.	.	.	.	.	.	.	.	.	.	.	.	.	.	16fJJ	.	.	.	.	.	.	.	.	.	.	.
.	.	.	.	.	.	.	.	.	.	.	.	.	.	.	.	.	.	8r	.	16b-LL	.	8FJ	.	.	.	.	.	.	.
.	.	.	.	.	.	.	.	.	.	.	.	.	.	.	.	.	.	.	.	16ddJJ	.	.	.	.	.	.	.	.	.
.	.	2D	.	2A	.	2f	.	.	.	.	.	.	.	.	8fL	8ddL	do	16fLL	2D	4r	.	4D	.	16ddLL]	.	.	.	.	.
.	.	.	.	.	.	.	.	.	.	.	.	.	.	.	.	.	.	16A	.	.	.	.	.	16cc	.	.	.	.	.
.	.	.	.	.	.	.	.	.	.	.	.	.	.	.	8eJ	8eeJ	.	16d	.	.	.	.	.	16b-	.	.	.	.	.
.	.	.	.	.	.	.	.	.	.	.	.	.	.	.	.	.	.	16fJJ	.	.	.	.	.	16aJJ	.	.	.	.	.
.	.	.	.	.	.	.	.	.	.	.	.	.	.	.	4d	4ff	mi-	4r	.	16aLL	.	8FL	.	8gL	.	.	.	.	.
.	.	.	.	.	.	.	.	.	.	.	.	.	.	.	.	.	.	.	.	16dd	.	.	.	.	.	.	.	.	.
.	.	.	.	.	.	.	.	.	.	.	.	.	.	.	.	.	.	.	.	16ee	.	8AAJ	.	8fJ	.	.	.	.	.
.	.	.	.	.	.	.	.	.	.	.	.	.	.	.	.	.	.	.	.	16ffJJ	.	.	.	.	.	.	.	.	.
=40	=40	=40	=40	=40	=40	=40	=40	=40	=40	=40	=40	=40	=40	=40	=40	=40	=40	=40	=40	=40	=40	=40	=40	=40	=40	=40	=40	=40	=40
*	*	*	*	*	*	*	*	*	*	*^	*	*^	*	*	*	*	*	*	*	*	*	*	*	*	*	*	*	*	*
1r	.	2.C	.	2f	.	2.g	.	2.r	.	2.r	2.r	.	2.r	2.r	.	.	(2f	(2.cc	-ło-	1r	2C	16ggLL	.	1C	.	1g	.	1r	.	2.r	.
.	.	.	.	.	.	.	.	.	.	.	.	.	.	.	.	.	.	.	.	.	.	16g	.	.	.	.	.	.	.	.	.
.	.	.	.	.	.	.	.	.	.	.	.	.	.	.	.	.	.	.	.	.	.	16cc	.	.	.	.	.	.	.	.	.
.	.	.	.	.	.	.	.	.	.	.	.	.	.	.	.	.	.	.	.	.	.	16ddJJ	.	.	.	.	.	.	.	.	.
.	.	.	.	.	.	.	.	.	.	.	.	.	.	.	.	.	.	.	.	.	.	16eeLL	.	.	.	.	.	.	.	.	.
.	.	.	.	.	.	.	.	.	.	.	.	.	.	.	.	.	.	.	.	.	.	16ff	.	.	.	.	.	.	.	.	.
.	.	.	.	.	.	.	.	.	.	.	.	.	.	.	.	.	.	.	.	.	.	16gg	.	.	.	.	.	.	.	.	.
.	.	.	.	.	.	.	.	.	.	.	.	.	.	.	.	.	.	.	.	.	.	16aaJJ	.	.	.	.	.	.	.	.	.
.	.	.	.	4e	.	.	.	.	.	.	.	.	.	.	.	.	2e)	.	.	.	4C: 4G: 4c:	4e: 4g: 4cc: 4gg:	.	.	.	.	.	.	.	.	.
.	.	8r	.	8r	.	8r	.	8r	.	8r	8r	.	8r	8r	.	.	.	4b-)	.	.	4r	4r	.	.	.	.	.	.	.	8ggL	.
.	.	8C	mf	8B-	mf	8c	mf	8e	.	8B-	8C	.	8e	8c	Stwo-	.	.	.	.	.	.	.	.	.	.	.	.	.	.	8eeJ	.
=41||	=41||	=41||	=41||	=41||	=41||	=41||	=41||	=41||	=41||	=41||	=41||	=41||	=41||	=41||	=41||	=41||	=41||	=41||	=41||	=41||	=41||	=41||	=41||	=41||	=41||	=41||	=41||	=41||	=41||	=41||	=41||
1r	.	4.D	.	4.A	.	4.d	.	4.f	.	4.A	4.D	.	4.f	4.d	-rze-	.	2d	2a	-ści	1r	1r	1r	.	1r	.	1r	.	1r	.	4.ff	.
.	.	8D	.	8A	.	8d	.	8f	.	8A	8D	.	8f	8d	-ni	.	.	.	.	.	.	.	.	.	.	.	.	.	.	16ggLL	.
.	.	.	.	.	.	.	.	.	.	.	.	.	.	.	.	.	.	.	.	.	.	.	.	.	.	.	.	.	.	16aaJJ	.
.	.	4C	.	4c	.	8eL	.	8gL	.	4c	4C	.	8gL	8eL	na	.	2r	2r	.	.	.	.	.	.	.	.	.	.	.	8ggL	.
.	.	.	.	.	.	8fJ	.	8aJ	.	.	.	.	8aJ	8fJ	.	.	.	.	.	.	.	.	.	.	.	.	.	.	.	8ffJ	.
.	.	4E	.	4c	.	4g	.	4b-	.	4c	4E	.	4b-	4g	Twój	.	.	.	.	.	.	.	.	.	.	.	.	.	.	16eeLL	.
.	.	.	.	.	.	.	.	.	.	.	.	.	.	.	.	.	.	.	.	.	.	.	.	.	.	.	.	.	.	16ff	.
.	.	.	.	.	.	.	.	.	.	.	.	.	.	.	.	.	.	.	.	.	.	.	.	.	.	.	.	.	.	16gg	.
.	.	.	.	.	.	.	.	.	.	.	.	.	.	.	.	.	.	.	.	.	.	.	.	.	.	.	.	.	.	16aaJJ	.
*	*	*	*	*	*	*	*	*	*	*	*	*	*	*	*	*	*	*	*	*v	*v	*	*	*	*	*	*	*	*	*	*
=42	=42	=42	=42	=42	=42	=42	=42	=42	=42	=42	=42	=42	=42	=42	=42	=42	=42	=42	=42	=42	=42	=42	=42	=42	=42	=42	=42	=42	=42	=42
1r	.	2F	.	(4c	.	2g	.	2b-	.	(4c	2F	.	2b-	2g	o-	.	1r	1r	.	1r	1r	.	1r	.	1r	.	1r	.	2bb-	.
.	.	.	.	4d)	.	.	.	.	.	4d)	.	.	.	.	.	.	.	.	.	.	.	.	.	.	.	.	.	.	.	.
.	.	4.F	.	4.c	.	4.f	.	4.a	.	4.c	4.F	.	4.a	4.f	-braz,	.	.	.	.	.	.	.	.	.	.	.	.	.	4aa	.
.	.	.	.	.	.	.	.	.	.	.	.	.	.	.	.	.	.	.	.	.	.	.	.	.	.	.	.	.	8r	.
.	.	8E	.	8c	.	8e	.	8g	.	8c	8E	.	8g	8e	na	.	.	.	.	.	.	.	.	.	.	.	.	.	16ggLL	.
.	.	.	.	.	.	.	.	.	.	.	.	.	.	.	.	.	.	.	.	.	.	.	.	.	.	.	.	.	16aaJJ	.
=43	=43	=43	=43	=43	=43	=43	=43	=43	=43	=43	=43	=43	=43	=43	=43	=43	=43	=43	=43	=43	=43	=43	=43	=43	=43	=43	=43	=43	=43	=43
1r	.	4.D	.	(8cL	.	4.d	.	4.f	.	8cL	4.D	.	4.f	4.d	Two-	.	1r	1r	.	1r	1r	.	1r	.	1r	.	1r	.	2ff	.
.	.	.	.	8B-J)	.	.	.	.	.	8B-	.	.	.	.	.	.	.	.	.	.	.	.	.	.	.	.	.	.	.	.
.	.	.	.	4A	.	.	.	.	.	8AJ	.	.	.	.	.	.	.	.	.	.	.	.	.	.	.	.	.	.	.	.
.	.	8D	.	.	.	8d	.	8f	.	8A	8D	.	8f	8d	-je	.	.	.	.	.	.	.	.	.	.	.	.	.	.	.
.	.	4C	.	4c	.	8eL	.	8gL	.	4c	4C	.	8gL	8eL	po-	.	.	.	.	.	.	.	.	.	.	.	.	.	8eeL	.
.	.	.	.	.	.	8fJ	.	8aJ	.	.	.	.	8aJ	8fJ	.	.	.	.	.	.	.	.	.	.	.	.	.	.	8ff	.
.	.	4E	.	4c	.	4g	.	4b-	.	4c	4E	.	4b-	4g	-do-	.	.	.	.	.	.	.	.	.	.	.	.	.	8gg	.
.	.	.	.	.	.	.	.	.	.	.	.	.	.	.	.	.	.	.	.	.	.	.	.	.	.	.	.	.	8eeJ	.
=44	=44	=44	=44	=44	=44	=44	=44	=44	=44	=44	=44	=44	=44	=44	=44	=44	=44	=44	=44	=44	=44	=44	=44	=44	=44	=44	=44	=44	=44	=44
1r	.	2F	.	(4c	.	2g	.	2b-	.	(4c	2F	.	2b-	2g	-bień-	.	1r	1r	.	1r	1r	.	1r	.	1r	.	2.r	.	2cc	.
.	.	.	.	4d)	.	.	.	.	.	4d)	.	.	.	.	.	.	.	.	.	.	.	.	.	.	.	.	.	.	.	.
.	.	4F	.	4c	.	4f	.	4a	.	4c	4F	.	4a	4f	-stwo;	.	.	.	.	.	.	.	.	.	.	.	.	.	2r	.
.	.	8AAL	.	8FL	.	8cL	.	8gL	.	8FL	8AAL	.	8gL	8cL	Two-	.	.	.	.	.	.	.	.	.	.	.	8gL	.	.	.
.	.	8AAJ	.	8FJ	.	8cJ	.	8fJ	.	8FJ	8AAJ	.	8fJ	8cJ	-je	.	.	.	.	.	.	.	.	.	.	.	8fJ	.	.	.
=45	=45	=45	=45	=45	=45	=45	=45	=45	=45	=45	=45	=45	=45	=45	=45	=45	=45	=45	=45	=45	=45	=45	=45	=45	=45	=45	=45	=45	=45	=45
1r	.	2BB-	mp	2F	mp	8B-'L	mp	8d'L	mp	4F	4BB-	.	4d	4B-	I-	.	1r	1r	.	1r	1r	.	1r	.	1r	.	4d	.	1r	.
.	.	.	.	.	.	8d'	.	8f'	.	.	.	.	.	.	.	.	.	.	.	.	.	.	.	.	.	.	.	.	.	.
.	.	.	.	.	.	8f'	.	8b-'	.	4F	4BB-	.	4d	4B-	-mię	.	.	.	.	.	.	.	.	.	.	.	4f	.	.	.
.	.	.	.	.	.	8d'J	.	8f'J	.	.	.	.	.	.	.	.	.	.	.	.	.	.	.	.	.	.	.	.	.	.
.	.	2BB-	.	2G	.	8c'L	.	8e'L	.	4G	4BB-	.	4e	4c	wy-	.	.	.	.	.	.	.	.	.	.	.	4e	.	.	.
.	.	.	.	.	.	8e'	.	8g'	.	.	.	.	.	.	.	.	.	.	.	.	.	.	.	.	.	.	.	.	.	.
.	.	.	.	.	.	8g'	.	8cc'	.	4G	4BB-	.	4e	4c	-pi-	.	.	.	.	.	.	.	.	.	.	.	4g	.	.	.
.	.	.	.	.	.	8e'J	.	8g'J	.	.	.	.	.	.	.	.	.	.	.	.	.	.	.	.	.	.	.	.	.	.
=46	=46	=46	=46	=46	=46	=46	=46	=46	=46	=46	=46	=46	=46	=46	=46	=46	=46	=46	=46	=46	=46	=46	=46	=46	=46	=46	=46	=46	=46	=46
1r	.	2AA	.	4G	.	8c'L	.	8f'L	.	4G	4AA	.	4f	4c	-sa-	.	1r	1r	.	1r	1r	.	1r	.	1r	.	4f	.	1r	.
.	.	.	.	.	.	8f'	.	8cc'	.	.	.	.	.	.	.	.	.	.	.	.	.	.	.	.	.	.	.	.	.	.
.	.	.	.	2F	.	8a'	.	8ff'	.	4F	4AA	.	4f	4c	-ne	.	.	.	.	.	.	.	.	.	.	.	4a	.	.	.
.	.	.	.	.	.	8f'J	.	8cc'J	.	.	.	.	.	.	.	.	.	.	.	.	.	.	.	.	.	.	.	.	.	.
.	.	2AA-X	.	.	.	8c'L	.	8a-X'L	.	4F	4AA-X	.	4f	4c	w na-	.	.	.	.	.	.	.	.	.	.	.	4ff	.	.	.
.	.	.	.	.	.	8a-X'	.	8cc'	.	.	.	.	.	.	.	.	.	.	.	.	.	.	.	.	.	.	.	.	.	.
.	.	.	.	4c	.	8f'	.	8a-'	.	4c	4AA-	.	4f	4c	-szych	.	.	.	.	.	.	.	.	.	.	.	4cc	.	.	.
.	.	.	.	.	.	8c'J	.	8f'J	.	.	.	.	.	.	.	.	.	.	.	.	.	.	.	.	.	.	.	.	.	.
=47	=47	=47	=47	=47	=47	=47	=47	=47	=47	=47	=47	=47	=47	=47	=47	=47	=47	=47	=47	=47	=47	=47	=47	=47	=47	=47	=47	=47	=47	=47
1r	.	2.GG	mf	(8B-L	mf	2d	mf	1g	mf	(8B-L	(2.GG	.	1g	(2d	ser-	.	1r	1r	.	1r	1r	.	1r	.	1r	.	4.dd	.	1r	.
.	.	.	.	8A)	.	.	.	.	.	8A)	.	.	.	.	.	.	.	.	.	.	.	.	.	.	.	.	.	.	.	.
.	.	.	.	8B-	.	.	.	.	.	8B-	.	.	.	.	.	.	.	.	.	.	.	.	.	.	.	.	.	.	.	.
.	.	.	.	8cJ	.	.	.	.	.	8cJ	.	.	.	.	.	.	.	.	.	.	.	.	.	.	.	.	8cc	.	.	.
.	.	.	.	(8dL	.	(2f	.	.	.	8dL	.	.	.	2f)	.	.	.	.	.	.	.	.	.	.	.	.	8b-L	.	.	.
.	.	.	.	8c	.	.	.	.	.	8c	.	.	.	.	.	.	.	.	.	.	.	.	.	.	.	.	8a	.	.	.
.	.	(8AAL	.	8B-	.	.	.	.	.	8B-	8AAL)	.	.	.	.	.	.	.	.	.	.	.	.	.	.	.	8g	.	.	.
.	.	8BB-J)	.	8AJ)	.	.	.	.	.	8AJ	8BB-J	.	.	.	.	.	.	.	.	.	.	.	.	.	.	.	8fJ	.	.	.
=48	=48	=48	=48	=48	=48	=48	=48	=48	=48	=48	=48	=48	=48	=48	=48	=48	=48	=48	=48	=48	=48	=48	=48	=48	=48	=48	=48	=48	=48	=48
4.r	.	4C	.	4G	.	2f)	.	2.g	.	(4G	2.C	.	2.g	2f	-cach.	.	1r	1r	.	2r	1r	.	1r	.	1r	.	2.g	.	1r	.
.	.	8r	.	2c	.	.	.	.	.	2c)	.	.	.	.	.	.	.	.	.	.	.	.	.	.	.	.	.	.	.	.
8C	.	8C	.	.	.	.	.	.	.	.	.	.	.	.	.	.	.	.	.	.	.	.	.	.	.	.	.	.	.	.
8GL	.	8GL	.	.	.	4e	.	.	.	.	.	.	.	4e	.	.	.	.	.	8r	.	.	.	.	.	.	.	.	.	.
8FJ	.	8FJ	.	.	.	.	.	.	.	.	.	.	.	.	.	.	.	.	.	4.C	.	.	.	.	.	.	.	.	.	.
16ELL	.	16ELL	.	8r	.	8r	.	8r	.	8r	8r	.	8r	8r	.	.	.	.	.	.	.	.	.	.	.	.	4r	.	.	.
16DJ	.	16DJ	.	.	.	.	.	.	.	.	.	.	.	.	.	.	.	.	.	.	.	.	.	.	.	.	.	.	.	.
8CJ	.	8CJ	.	8B-	.	8c	.	8e	.	8B-	8C	.	8e	8c	Stwo-	.	.	.	.	.	.	.	.	.	.	.	.	.	.	.
=49	=49	=49	=49	=49	=49	=49	=49	=49	=49	=49	=49	=49	=49	=49	=49	=49	=49	=49	=49	=49	=49	=49	=49	=49	=49	=49	=49	=49	=49	=49
4.D	.	4.D	.	4.A	.	4.d	.	4.f	.	4.A	4.D	.	4.f	4.d	-rze-	.	1r	1r	.	4D: 4A: 4d:	4f: 4a: 4dd: 4ff:	.	1r	.	1r	.	1r	.	1r	.
.	.	.	.	.	.	.	.	.	.	.	.	.	.	.	.	.	.	.	.	4r	4r	.	.	.	.	.	.	.	.	.
8D	.	8D	.	8A	.	8d	.	8f	.	8A	8D	.	8f	8d	-ni	.	.	.	.	.	.	.	.	.	.	.	.	.	.	.
4C	.	4C	.	4c	.	8eL	.	8gL	.	4c	4C	.	8gL	8eL	na	.	.	.	.	4G: 4c:	4g: 4cc: 4gg:	.	.	.	.	.	.	.	.	.
.	.	.	.	.	.	8fJ	.	8aJ	.	.	.	.	8aJ	8fJ	.	.	.	.	.	.	.	.	.	.	.	.	.	.	.	.
4E	.	4E	.	4c	.	4g	.	4b-	.	4c	4E	.	4b-	4g	Twój	.	.	.	.	4r	4r	.	.	.	.	.	.	.	.	.
=50	=50	=50	=50	=50	=50	=50	=50	=50	=50	=50	=50	=50	=50	=50	=50	=50	=50	=50	=50	=50	=50	=50	=50	=50	=50	=50	=50	=50	=50	=50
2F	.	2F	.	(4c	.	2g	.	2b-	.	(4c	2F	.	2b-	2g	o-	.	1r	1r	.	4F: 4c:	4f: 4cc: 4gg:	.	1r	.	1r	.	1r	.	8b-L	.
.	.	.	.	.	.	.	.	.	.	.	.	.	.	.	.	.	.	.	.	.	.	.	.	.	.	.	.	.	8cc	.
.	.	.	.	4d)	.	.	.	.	.	4d)	.	.	.	.	.	.	.	.	.	4r	4r	.	.	.	.	.	.	.	8dd	.
.	.	.	.	.	.	.	.	.	.	.	.	.	.	.	.	.	.	.	.	.	.	.	.	.	.	.	.	.	8ee	.
4.F	.	4.F	.	4.c	.	4.f	.	4.a	.	4.c	4.F	.	4.a	4.f	-braz,	.	.	.	.	2r	4f: 4cc: 4ff:	.	.	.	.	.	.	.	8ff'J	.
.	.	.	.	.	.	.	.	.	.	.	.	.	.	.	.	.	.	.	.	.	.	.	.	.	.	.	.	.	16ddLL	.
.	.	.	.	.	.	.	.	.	.	.	.	.	.	.	.	.	.	.	.	.	.	.	.	.	.	.	.	.	16eeJJ	.
.	.	.	.	.	.	.	.	.	.	.	.	.	.	.	.	.	.	.	.	.	4r	.	.	.	.	.	.	.	16ffLL	.
.	.	.	.	.	.	.	.	.	.	.	.	.	.	.	.	.	.	.	.	.	.	.	.	.	.	.	.	.	16gg	.
8E	.	8E	.	8c	.	8e	.	8g	.	8c	8E	.	8g	8e	na	.	.	.	.	.	.	.	.	.	.	.	.	.	16aa	.
.	.	.	.	.	.	.	.	.	.	.	.	.	.	.	.	.	.	.	.	.	.	.	.	.	.	.	.	.	16bb-JJ	.
=51	=51	=51	=51	=51	=51	=51	=51	=51	=51	=51	=51	=51	=51	=51	=51	=51	=51	=51	=51	=51	=51	=51	=51	=51	=51	=51	=51	=51	=51	=51
4.D	.	4.D	.	(8cL	.	4.d	.	4.f	.	8cL	4.D	.	4.f	4.d	Two-	.	1r	1r	.	4D: 4A: 4d:	4f: 4a: 4dd: 4ff:	.	1r	.	1r	.	1r	.	8.aaL	.
.	.	.	.	8B-J)	.	.	.	.	.	8B-	.	.	.	.	.	.	.	.	.	.	.	.	.	.	.	.	.	.	.	.
.	.	.	.	.	.	.	.	.	.	.	.	.	.	.	.	.	.	.	.	.	.	.	.	.	.	.	.	.	16ggJk	.
.	.	.	.	4A	.	.	.	.	.	8AJ	.	.	.	.	.	.	.	.	.	4r	4r	.	.	.	.	.	.	.	4ff	.
8D	.	8D	.	.	.	8d	.	8f	.	8A	8D	.	8f	8d	-je	.	.	.	.	.	.	.	.	.	.	.	.	.	.	.
4C	.	4C	.	4c	.	8eL	.	8gL	.	4c	4C	.	8gL	8eL	po-	.	.	.	.	4G: 4c:	4g: 4cc: 4gg:	.	.	.	.	.	.	.	(8ggL	.
.	.	.	.	.	.	8fJ	.	8aJ	.	.	.	.	8aJ	8fJ	.	.	.	.	.	.	.	.	.	.	.	.	.	.	8ffJ	.
4E	.	4E	.	4c	.	4g	.	4b-	.	4c	4E	.	4b-	4g	-do-	.	.	.	.	4r	4r	.	.	.	.	.	.	.	16eeLL	.
.	.	.	.	.	.	.	.	.	.	.	.	.	.	.	.	.	.	.	.	.	.	.	.	.	.	.	.	.	16ffJ)	.
.	.	.	.	.	.	.	.	.	.	.	.	.	.	.	.	.	.	.	.	.	.	.	.	.	.	.	.	.	8ggJ	.
=52	=52	=52	=52	=52	=52	=52	=52	=52	=52	=52	=52	=52	=52	=52	=52	=52	=52	=52	=52	=52	=52	=52	=52	=52	=52	=52	=52	=52	=52	=52
2F	.	2F	.	(4c	.	2g	.	2b-	.	(4c	2F	.	2b-	2g	-bień-	.	1r	1r	.	4F: 4c:	4f: 4cc: 4ff: 4bb-:	.	1r	.	1r	.	2.r	.	2.ff	.
.	.	.	.	4d)	.	.	.	.	.	4d)	.	.	.	.	.	.	.	.	.	4r	4r	.	.	.	.	.	.	.	.	.
4F	.	4F	.	4c	.	4f	.	4a	.	4c	4F	.	4a	4f	-stwo;	.	.	.	.	2r	4f: 4cc: 4ff: 4aa:	.	.	.	.	.	.	.	.	.
8AAL	.	8AAL	.	8FL	.	8cL	.	8gL	.	8FL	8AAL	.	8gL	8cL	Two-	.	.	.	.	.	4r	.	.	.	.	.	8gL	.	4r	.
8AAJ	.	8AAJ	.	8FJ	.	8cJ	.	8fJ	.	8FJ	8AAJ	.	8fJ	8cJ	-je	.	.	.	.	.	.	.	.	.	.	.	8fJ	.	.	.
=53	=53	=53	=53	=53	=53	=53	=53	=53	=53	=53	=53	=53	=53	=53	=53	=53	=53	=53	=53	=53	=53	=53	=53	=53	=53	=53	=53	=53	=53	=53
2BB-	mp	2BB-	mp	2F	mp	8B-'L	mp	8d'L	mp	4F	4BB-	.	4d	4B-	I-	.	1r	1r	.	1r	1r	.	1r	.	1r	.	4d	.	1r	.
.	.	.	.	.	.	8d'	.	8f'	.	.	.	.	.	.	.	.	.	.	.	.	.	.	.	.	.	.	.	.	.	.
.	.	.	.	.	.	8f'	.	8b-'	.	4F	4BB-	.	4d	4B-	-mię	.	.	.	.	.	.	.	.	.	.	.	4f	.	.	.
.	.	.	.	.	.	8d'J	.	8f'J	.	.	.	.	.	.	.	.	.	.	.	.	.	.	.	.	.	.	.	.	.	.
2BB-	.	2BB-	.	2G	.	8c'L	.	8e'L	.	4G	4BB-	.	4e	4c	wy-	.	.	.	.	.	.	.	.	.	.	.	4e	.	.	.
.	.	.	.	.	.	8e'	.	8g'	.	.	.	.	.	.	.	.	.	.	.	.	.	.	.	.	.	.	.	.	.	.
.	.	.	.	.	.	8g'	.	8cc'	.	4G	4BB-	.	4e	4c	-pi-	.	.	.	.	.	.	.	.	.	.	.	4g	.	.	.
.	.	.	.	.	.	8e'J	.	8g'J	.	.	.	.	.	.	.	.	.	.	.	.	.	.	.	.	.	.	.	.	.	.
=54	=54	=54	=54	=54	=54	=54	=54	=54	=54	=54	=54	=54	=54	=54	=54	=54	=54	=54	=54	=54	=54	=54	=54	=54	=54	=54	=54	=54	=54	=54
2AA	.	2AA	.	4G	.	8c'L	.	8f'L	.	4G	4AA	.	4f	4c	-sa-	.	1r	1r	.	1r	1r	.	1r	.	1r	.	4f	.	1r	.
.	.	.	.	.	.	8f'	.	8cc'	.	.	.	.	.	.	.	.	.	.	.	.	.	.	.	.	.	.	.	.	.	.
.	.	.	.	2F	.	8a'	.	8ff'	.	4F	4AA	.	4f	4c	-ne	.	.	.	.	.	.	.	.	.	.	.	4a	.	.	.
.	.	.	.	.	.	8f'J	.	8cc'J	.	.	.	.	.	.	.	.	.	.	.	.	.	.	.	.	.	.	.	.	.	.
2AA-X	.	2AA-X	.	.	.	8c'L	.	8a-X'L	.	4F	4AA-X	.	4f	4c	w na-	.	.	.	.	.	.	.	.	.	.	.	2cc	.	.	.
.	.	.	.	.	.	8a-X'	.	8cc'	.	.	.	.	.	.	.	.	.	.	.	.	.	.	.	.	.	.	.	.	.	.
.	.	.	.	4c	.	8f'	.	8a-'	.	4c	4AA-	.	4f	4c	-szych	.	.	.	.	.	.	.	.	.	.	.	.	.	.	.
.	.	.	.	.	.	8c'J	.	8f'J	.	.	.	.	.	.	.	.	.	.	.	.	.	.	.	.	.	.	.	.	.	.
=55	=55	=55	=55	=55	=55	=55	=55	=55	=55	=55	=55	=55	=55	=55	=55	=55	=55	=55	=55	=55	=55	=55	=55	=55	=55	=55	=55	=55	=55	=55
(4GG	mf	(4GG	mf	4.B-	mf	4d	mf	2.g	mf	(4.B-	(4GG	.	(2.g	(4d	ser-	.	1r	1r	.	1r	1r	.	1r	.	1r	.	4.b-	.	2.r	.
8AAL)	.	8AAL)	.	.	.	4f	.	.	.	.	8AAL)	.	.	4f)	.	.	.	.	.	.	.	.	.	.	.	.	.	.	.	.
8BB-J	.	8BB-J	.	8A	.	.	.	.	.	8A)	8BB-J	.	.	.	.	.	.	.	.	.	.	.	.	.	.	.	8a	.	.	.
2C	.	2C	.	2G	.	2e	.	.	.	2G	2C	.	.	2e	.	.	.	.	.	.	.	.	.	.	.	.	2g	.	.	.
.	.	.	.	.	.	.	.	4f	.	.	.	.	4f)	.	.	.	.	.	.	.	.	.	.	.	.	.	.	.	16aaLL	.
.	.	.	.	.	.	.	.	.	.	.	.	.	.	.	.	.	.	.	.	.	.	.	.	.	.	.	.	.	16gg	.
.	.	.	.	.	.	.	.	.	.	.	.	.	.	.	.	.	.	.	.	.	.	.	.	.	.	.	.	.	16ff	.
.	.	.	.	.	.	.	.	.	.	.	.	.	.	.	.	.	.	.	.	.	.	.	.	.	.	.	.	.	16ggJJ	.
=56||	=56||	=56||	=56||	=56||	=56||	=56||	=56||	=56||	=56||	=56||	=56||	=56||	=56||	=56||	=56||	=56||	=56||	=56||	=56||	=56||	=56||	=56||	=56||	=56||	=56||	=56||	=56||	=56||	=56||	=56||
16F~LL	.	16F~LL	.	16c~LL	.	16f~LL	.	16a~LL	.	2.A	2.F	.	2.f	2.c	-cach.	.	1r	1r	.	1r	1r	.	1r	.	1r	.	4f	.	4.aa	.
16F~JJ	.	16F~JJ	.	16c~JJ	.	16f~JJ	.	16a~JJ	.	.	.	.	.	.	.	.	.	.	.	.	.	.	.	.	.	.	.	.	.	.
16r	.	16r	.	16r	.	16r	.	16r	.	.	.	.	.	.	.	.	.	.	.	.	.	.	.	.	.	.	.	.	.	.
16F~	.	16F~	.	16c~	.	16f~	.	16a~	.	.	.	.	.	.	.	.	.	.	.	.	.	.	.	.	.	.	.	.	.	.
16F~LL	.	16F~LL	.	16c~LL	.	16f~LL	.	16a~LL	.	.	.	.	.	.	.	.	.	.	.	.	.	.	.	.	.	.	4r	.	.	.
16F~JJ	.	16F~JJ	.	16c~JJ	.	16f~JJ	.	16a~JJ	.	.	.	.	.	.	.	.	.	.	.	.	.	.	.	.	.	.	.	.	.	.
16r	.	16r	.	16r	.	16r	.	16r	.	.	.	.	.	.	.	.	.	.	.	.	.	.	.	.	.	.	.	.	8gg	.
16F~	.	16F~	.	16c~	.	16f~	.	16a~	.	.	.	.	.	.	.	.	.	.	.	.	.	.	.	.	.	.	.	.	.	.
16F~LL	.	16F~LL	.	16c~LL	.	16f~LL	.	16a~LL	.	.	.	.	.	.	.	.	.	.	.	.	.	.	.	.	.	.	2r	.	8ffL	.
16F~JJ	.	16F~JJ	.	16c~JJ	.	16f~JJ	.	16a~JJ	.	.	.	.	.	.	.	.	.	.	.	.	.	.	.	.	.	.	.	.	.	.
16r	.	16r	.	16r	.	16r	.	16r	.	.	.	.	.	.	.	.	.	.	.	.	.	.	.	.	.	.	.	.	8cc	.
16F~	.	16F~	.	16c~	.	16f~	.	16a~	.	.	.	.	.	.	.	.	.	.	.	.	.	.	.	.	.	.	.	.	.	.
*	*	*	*	*	*	*	*	*	*	*v	*v	*	*	*	*	*	*	*	*	*	*	*	*	*	*	*	*	*	*	*
*	*	*	*	*	*	*	*	*	*	*	*	*v	*v	*	*	*	*	*	*	*	*	*	*	*	*	*	*	*	*
16F~LL	.	16F~LL	.	16c~LL	.	16f~LL	.	16a~LL	.	4r	.	4r	.	.	.	.	.	.	.	.	.	.	.	.	.	.	8ff	.
16F~	.	16F~	.	16c~	.	16f~	.	16a~	.	.	.	.	.	.	.	.	.	.	.	.	.	.	.	.	.	.	.	.
16F~	.	16F~	.	16c~	.	16f~	.	16a~	.	.	.	.	.	.	.	.	.	.	.	.	.	.	.	.	.	.	8aaJ	.
16F~JJ	.	16F~JJ	.	16c~JJ	.	16f~JJ	.	16a~JJ	.	.	.	.	.	.	.	.	.	.	.	.	.	.	.	.	.	.	.	.
=57	=57	=57	=57	=57	=57	=57	=57	=57	=57	=57	=57	=57	=57	=57	=57	=57	=57	=57	=57	=57	=57	=57	=57	=57	=57	=57	=57	=57
16C~LL	.	16C~LL	.	16c~LL	.	16f~LL	.	16g~LL	.	1r	.	1r	.	.	1r	1r	.	1r	1r	.	1r	.	1r	.	1r	.	2gg	.
16C~JJ	.	16C~JJ	.	16c~JJ	.	16f~JJ	.	16g~JJ	.	.	.	.	.	.	.	.	.	.	.	.	.	.	.	.	.	.	.	.
16r	.	16r	.	16r	.	16r	.	16r	.	.	.	.	.	.	.	.	.	.	.	.	.	.	.	.	.	.	.	.
16C~	.	16C~	.	16c~	.	16f~	.	16g~	.	.	.	.	.	.	.	.	.	.	.	.	.	.	.	.	.	.	.	.
16C~LL	.	16C~LL	.	16c~LL	.	16f~LL	.	16g~LL	.	.	.	.	.	.	.	.	.	.	.	.	.	.	.	.	.	.	.	.
16C~JJ	.	16C~JJ	.	16c~JJ	.	16f~JJ	.	16g~JJ	.	.	.	.	.	.	.	.	.	.	.	.	.	.	.	.	.	.	.	.
16r	.	16r	.	16r	.	16r	.	16r	.	.	.	.	.	.	.	.	.	.	.	.	.	.	.	.	.	.	.	.
16C~	.	16C~	.	16c~	.	16f~	.	16g~	.	.	.	.	.	.	.	.	.	.	.	.	.	.	.	.	.	.	.	.
16C~LL	.	16C~LL	.	16c~LL	.	16e~LL	.	16g~LL	.	.	.	.	.	.	.	.	.	.	.	.	.	.	.	.	.	.	4r	.
16C~JJ	.	16C~JJ	.	16c~JJ	.	16e~JJ	.	16g~JJ	.	.	.	.	.	.	.	.	.	.	.	.	.	.	.	.	.	.	.	.
16r	.	16r	.	16r	.	16r	.	16r	.	.	.	.	.	.	.	.	.	.	.	.	.	.	.	.	.	.	.	.
16C~	.	16C~	.	16c~	.	16e~	.	16g~	.	.	.	.	.	.	.	.	.	.	.	.	.	.	.	.	.	.	.	.
16C~LL	.	16C~LL	.	16c~LL	.	16e~LL	.	16g~LL	.	.	.	.	.	.	.	.	.	.	.	.	.	.	.	.	.	.	8ggL	.
16C~	.	16C~	.	16c~	.	16e~	.	16g~	.	.	.	.	.	.	.	.	.	.	.	.	.	.	.	.	.	.	.	.
16C~	.	16C~	.	16c~	.	16e~	.	16g~	.	.	.	.	.	.	.	.	.	.	.	.	.	.	.	.	.	.	8aaJ	.
16C~JJ	.	16C~JJ	.	16c~JJ	.	16e~JJ	.	16g~JJ	.	.	.	.	.	.	.	.	.	.	.	.	.	.	.	.	.	.	.	.
=58	=58	=58	=58	=58	=58	=58	=58	=58	=58	=58	=58	=58	=58	=58	=58	=58	=58	=58	=58	=58	=58	=58	=58	=58	=58	=58	=58	=58
16G~LL	.	16G~LL	.	16d~LL	.	16g~LL	.	16b-~LL	.	1r	.	1r	.	.	1r	1r	.	1r	1r	.	1r	.	1r	.	1r	.	4.bb-	.
16G~JJ	.	16G~JJ	.	16d~JJ	.	16g~JJ	.	16b-~JJ	.	.	.	.	.	.	.	.	.	.	.	.	.	.	.	.	.	.	.	.
16r	.	16r	.	16r	.	16r	.	16r	.	.	.	.	.	.	.	.	.	.	.	.	.	.	.	.	.	.	.	.
16G~	.	16G~	.	16d~	.	16g~	.	16b-~	.	.	.	.	.	.	.	.	.	.	.	.	.	.	.	.	.	.	.	.
16G~LL	.	16G~LL	.	16d~LL	.	16g~LL	.	16b-~LL	.	.	.	.	.	.	.	.	.	.	.	.	.	.	.	.	.	.	.	.
16G~JJ	.	16G~JJ	.	16d~JJ	.	16g~JJ	.	16b-~JJ	.	.	.	.	.	.	.	.	.	.	.	.	.	.	.	.	.	.	.	.
16r	.	16r	.	16r	.	16r	.	16r	.	.	.	.	.	.	.	.	.	.	.	.	.	.	.	.	.	.	8aa	.
16G~	.	16G~	.	16d~	.	16g~	.	16b-~	.	.	.	.	.	.	.	.	.	.	.	.	.	.	.	.	.	.	.	.
16G~LL	.	16G~LL	.	16d~LL	.	16g~LL	.	16b-~LL	.	.	.	.	.	.	.	.	.	.	.	.	.	.	.	.	.	.	8ggL	.
16G~JJ	.	16G~JJ	.	16d~JJ	.	16g~JJ	.	16b-~JJ	.	.	.	.	.	.	.	.	.	.	.	.	.	.	.	.	.	.	.	.
16r	.	16r	.	16r	.	16r	.	16r	.	.	.	.	.	.	.	.	.	.	.	.	.	.	.	.	.	.	8dd	.
16G~	.	16G~	.	16d~	.	16g~	.	16b-~	.	.	.	.	.	.	.	.	.	.	.	.	.	.	.	.	.	.	.	.
16G~LL	.	16G~LL	.	16d~LL	.	16g~LL	.	16b-~LL	.	.	.	.	.	.	.	.	.	.	.	.	.	.	.	.	.	.	8ff	.
16G~	.	16G~	.	16d~	.	16g~	.	16b-~	.	.	.	.	.	.	.	.	.	.	.	.	.	.	.	.	.	.	.	.
16G~	.	16G~	.	16d~	.	16g~	.	16b-~	.	.	.	.	.	.	.	.	.	.	.	.	.	.	.	.	.	.	[8ggJ	.
16G~JJ	.	16G~JJ	.	16d~JJ	.	16g~JJ	.	16b-~JJ	.	.	.	.	.	.	.	.	.	.	.	.	.	.	.	.	.	.	.	.
=59	=59	=59	=59	=59	=59	=59	=59	=59	=59	=59	=59	=59	=59	=59	=59	=59	=59	=59	=59	=59	=59	=59	=59	=59	=59	=59	=59	=59
16D~LL	.	16D~LL	.	16d~LL	.	16g~LL	.	16a~LL	.	1r	.	1r	.	.	1r	1r	.	1r	1r	.	1r	.	1r	.	2.r	.	2gg]	.
16D~JJ	.	16D~JJ	.	16d~JJ	.	16g~JJ	.	16a~JJ	.	.	.	.	.	.	.	.	.	.	.	.	.	.	.	.	.	.	.	.
16r	.	16r	.	16r	.	16r	.	16r	.	.	.	.	.	.	.	.	.	.	.	.	.	.	.	.	.	.	.	.
16D~	.	16D~	.	16d~	.	16g~	.	16a~	.	.	.	.	.	.	.	.	.	.	.	.	.	.	.	.	.	.	.	.
16D~LL	.	16D~LL	.	16d~LL	.	16g~LL	.	16a~LL	.	.	.	.	.	.	.	.	.	.	.	.	.	.	.	.	.	.	.	.
16D~JJ	.	16D~JJ	.	16d~JJ	.	16g~JJ	.	16a~JJ	.	.	.	.	.	.	.	.	.	.	.	.	.	.	.	.	.	.	.	.
16r	.	16r	.	16r	.	16r	.	16r	.	.	.	.	.	.	.	.	.	.	.	.	.	.	.	.	.	.	.	.
16D~	.	16D~	.	16d~	.	16g~	.	16a~	.	.	.	.	.	.	.	.	.	.	.	.	.	.	.	.	.	.	.	.
16D~LL	.	16D~LL	.	16d~LL	.	16f~LL	.	16a~LL	.	.	.	.	.	.	.	.	.	.	.	.	.	.	.	.	.	.	4aa	.
16D~JJ	.	16D~JJ	.	16d~JJ	.	16f~JJ	.	16a~JJ	.	.	.	.	.	.	.	.	.	.	.	.	.	.	.	.	.	.	.	.
16r	.	16r	.	16r	.	16r	.	16r	.	.	.	.	.	.	.	.	.	.	.	.	.	.	.	.	.	.	.	.
16D~	.	16D~	.	16d~	.	16f~	.	16a~	.	.	.	.	.	.	.	.	.	.	.	.	.	.	.	.	.	.	.	.
16D~LL	.	16D~LL	.	16d~LL	.	16f~LL	.	16a~LL	.	.	.	.	.	.	.	.	.	.	.	.	.	.	.	.	8r	.	4r	.
16D~	.	16D~	.	16d~	.	16f~	.	16a~	.	.	.	.	.	.	.	.	.	.	.	.	.	.	.	.	.	.	.	.
16D~	.	16D~	.	16c~	.	16f~	.	16a~	.	.	.	.	.	.	.	.	.	.	.	.	.	.	.	.	16ggLL	.	.	.
16D~JJ	.	16D~JJ	.	16c~JJ	.	16f~JJ	.	16a~JJ	.	.	.	.	.	.	.	.	.	.	.	.	.	.	.	.	16ffJJ	.	.	.
=60	=60	=60	=60	=60	=60	=60	=60	=60	=60	=60	=60	=60	=60	=60	=60	=60	=60	=60	=60	=60	=60	=60	=60	=60	=60	=60	=60	=60
16E-X~LL	.	16E-X~LL	.	16B-~LL	.	16f~LL	.	16g~LL	.	1r	.	1r	.	.	1r	1r	.	1r	1r	.	1r	.	1r	.	4.gg	.	1r	.
16E-~JJ	.	16E-~JJ	.	16B-~JJ	.	16f~JJ	.	16g~JJ	.	.	.	.	.	.	.	.	.	.	.	.	.	.	.	.	.	.	.	.
16r	.	16r	.	16r	.	16r	.	16r	.	.	.	.	.	.	.	.	.	.	.	.	.	.	.	.	.	.	.	.
16E-~	.	16E-~	.	16B-~	.	16f~	.	16g~	.	.	.	.	.	.	.	.	.	.	.	.	.	.	.	.	.	.	.	.
16E-~LL	.	16E-~LL	.	16B-~LL	.	16f~LL	.	16g~LL	.	.	.	.	.	.	.	.	.	.	.	.	.	.	.	.	.	.	.	.
16E-~JJ	.	16E-~JJ	.	16B-~JJ	.	16f~JJ	.	16g~JJ	.	.	.	.	.	.	.	.	.	.	.	.	.	.	.	.	.	.	.	.
16r	.	16r	.	16r	.	16r	.	16r	.	.	.	.	.	.	.	.	.	.	.	.	.	.	.	.	8ff	.	.	.
16E-~	.	16E-~	.	16B-~	.	16f~	.	16g~	.	.	.	.	.	.	.	.	.	.	.	.	.	.	.	.	.	.	.	.
16E-~LL	.	16E-~LL	.	16B-~LL	.	16e-X~LL	.	16g~LL	.	.	.	.	.	.	.	.	.	.	.	.	.	.	.	.	8ee-XL	.	.	.
16E-~JJ	.	16E-~JJ	.	16B-~JJ	.	16e-~JJ	.	16g~JJ	.	.	.	.	.	.	.	.	.	.	.	.	.	.	.	.	.	.	.	.
16r	.	16r	.	16r	.	16r	.	16r	.	.	.	.	.	.	.	.	.	.	.	.	.	.	.	.	8b-	.	.	.
16E-~	.	16E-~	.	16B-~	.	16e-~	.	16g~	.	.	.	.	.	.	.	.	.	.	.	.	.	.	.	.	.	.	.	.
16E-~LL	.	16E-~LL	.	16B-~LL	.	16e-~LL	.	16g~LL	.	.	.	.	.	.	.	.	.	.	.	.	.	.	.	.	8ee-	.	.	.
16E-~	.	16E-~	.	16B-~	.	16e-~	.	16g~	.	.	.	.	.	.	.	.	.	.	.	.	.	.	.	.	.	.	.	.
16E-~	.	16E-~	.	16B-~	.	16e-~	.	16g~	.	.	.	.	.	.	.	.	.	.	.	.	.	.	.	.	8ggJ	.	.	.
16E-~JJ	.	16E-~JJ	.	16B-~JJ	.	16e-~JJ	.	16g~JJ	.	.	.	.	.	.	.	.	.	.	.	.	.	.	.	.	.	.	.	.
=61	=61	=61	=61	=61	=61	=61	=61	=61	=61	=61	=61	=61	=61	=61	=61	=61	=61	=61	=61	=61	=61	=61	=61	=61	=61	=61	=61	=61
16BB-~LL	.	16BB-~LL	.	16B-~LL	.	16e-X~LL	.	16f~LL	.	1r	.	1r	.	.	1r	1r	.	1r	1r	.	1r	.	1r	.	(4ff	.	2.r	.
16BB-~JJ	.	16BB-~JJ	.	16B-~JJ	.	16e-~JJ	.	16f~JJ	.	.	.	.	.	.	.	.	.	.	.	.	.	.	.	.	.	.	.	.
16r	.	16r	.	16r	.	16r	.	16r	.	.	.	.	.	.	.	.	.	.	.	.	.	.	.	.	.	.	.	.
16BB-~	.	16BB-~	.	16B-~	.	16e-~	.	16f~	.	.	.	.	.	.	.	.	.	.	.	.	.	.	.	.	.	.	.	.
16BB-~LL	.	16BB-~LL	.	16B-~LL	.	16e-~LL	.	16f~LL	.	.	.	.	.	.	.	.	.	.	.	.	.	.	.	.	16ffLL)	.	.	.
16BB-~JJ	.	16BB-~JJ	.	16B-~JJ	.	16e-~JJ	.	16f~JJ	.	.	.	.	.	.	.	.	.	.	.	.	.	.	.	.	16ee-X	.	.	.
16r	.	16r	.	16r	.	16r	.	16r	.	.	.	.	.	.	.	.	.	.	.	.	.	.	.	.	16dd	.	.	.
16BB-~	.	16BB-~	.	16B-~	.	16e-~	.	16f~	.	.	.	.	.	.	.	.	.	.	.	.	.	.	.	.	16ccJJ	.	.	.
16BB-~LL	.	16BB-~LL	.	16B-~LL	.	16d~LL	.	16f~LL	.	.	.	.	.	.	.	.	.	.	.	.	.	.	.	.	4b-	.	.	.
16BB-~JJ	.	16BB-~JJ	.	16B-~JJ	.	16d~JJ	.	16f~JJ	.	.	.	.	.	.	.	.	.	.	.	.	.	.	.	.	.	.	.	.
16r	.	16r	.	16r	.	16r	.	16r	.	.	.	.	.	.	.	.	.	.	.	.	.	.	.	.	.	.	.	.
16BB-~	.	16BB-~	.	16B-~	.	16d~	.	16f~	.	.	.	.	.	.	.	.	.	.	.	.	.	.	.	.	.	.	.	.
16BB-~LL	.	16BB-~LL	.	16B-~LL	.	16d~LL	.	16f~LL	.	.	.	.	.	.	.	.	.	.	.	.	.	.	.	.	4r	.	8r	.
16BB-~	.	16BB-~	.	16B-~	.	16d~	.	16f~	.	.	.	.	.	.	.	.	.	.	.	.	.	.	.	.	.	.	.	.
16BB-~	.	16BB-~	.	16B-~	.	16d~	.	16f~	.	.	.	.	.	.	.	.	.	.	.	.	.	.	.	.	.	.	16ddLL	.
16BB-~JJ	.	16BB-~JJ	.	16B-~JJ	.	16d~JJ	.	16f~JJ	.	.	.	.	.	.	.	.	.	.	.	.	.	.	.	.	.	.	16ee-XJJ	.
=62	=62	=62	=62	=62	=62	=62	=62	=62	=62	=62	=62	=62	=62	=62	=62	=62	=62	=62	=62	=62	=62	=62	=62	=62	=62	=62	=62	=62
16D-X~LL	.	16D-X~LL	.	16A-X~LL	.	16d-X~LL	.	16f~LL	.	1r	.	1r	.	.	1r	1r	.	1r	1r	.	1r	.	1r	.	4.a-X	.	4.ff	.
16D-~JJ	.	16D-~JJ	.	16A-~JJ	.	16d-~JJ	.	16f~JJ	.	.	.	.	.	.	.	.	.	.	.	.	.	.	.	.	.	.	.	.
16r	.	16r	.	16r	.	16r	.	16r	.	.	.	.	.	.	.	.	.	.	.	.	.	.	.	.	.	.	.	.
16D-~	.	16D-~	.	16A-~	.	16d-~	.	16f~	.	.	.	.	.	.	.	.	.	.	.	.	.	.	.	.	.	.	.	.
16D-~LL	.	16D-~LL	.	16A-~LL	.	16d-~LL	.	16f~LL	.	.	.	.	.	.	.	.	.	.	.	.	.	.	.	.	.	.	.	.
16D-~JJ	.	16D-~JJ	.	16A-~JJ	.	16d-~JJ	.	16f~JJ	.	.	.	.	.	.	.	.	.	.	.	.	.	.	.	.	.	.	.	.
16r	.	16r	.	16r	.	16r	.	16r	.	.	.	.	.	.	.	.	.	.	.	.	.	.	.	.	8g	.	8ee-X	.
16D-~	.	16D-~	.	16A-~	.	16d-~	.	16f~	.	.	.	.	.	.	.	.	.	.	.	.	.	.	.	.	.	.	.	.
16D-~LL	.	16D-~LL	.	16A-~LL	.	16d-~LL	.	16f~LL	.	.	.	.	.	.	.	.	.	.	.	.	.	.	.	.	8a-L	.	8ffL	.
16D-~JJ	.	16D-~JJ	.	16A-~JJ	.	16d-~JJ	.	16f~JJ	.	.	.	.	.	.	.	.	.	.	.	.	.	.	.	.	.	.	.	.
16r	.	16r	.	16r	.	16r	.	16r	.	.	.	.	.	.	.	.	.	.	.	.	.	.	.	.	8b-	.	8gg	.
16D-~	.	16D-~	.	16A-~	.	16d-~	.	16f~	.	.	.	.	.	.	.	.	.	.	.	.	.	.	.	.	.	.	.	.
16D-~LL	.	16D-~LL	.	16A-~LL	.	16d-~LL	.	16f~LL	.	.	.	.	.	.	.	.	.	.	.	.	.	.	.	.	8dd-X	.	8aa-X	.
16D-~	.	16D-~	.	16A-~	.	16d-~	.	16f~	.	.	.	.	.	.	.	.	.	.	.	.	.	.	.	.	.	.	.	.
16D-~	.	16D-~	.	16A-~	.	16d-~	.	16f~	.	.	.	.	.	.	.	.	.	.	.	.	.	.	.	.	8b-J	.	8bb-J	.
16D-~JJ	.	16D-~JJ	.	16A-~JJ	.	16d-~JJ	.	16f~JJ	.	.	.	.	.	.	.	.	.	.	.	.	.	.	.	.	.	.	.	.
=63	=63	=63	=63	=63	=63	=63	=63	=63	=63	=63	=63	=63	=63	=63	=63	=63	=63	=63	=63	=63	=63	=63	=63	=63	=63	=63	=63	=63
!	!	!	!	!	!	!	!	!	!	!	!	!	!	!	!	!	!	!	!	!	!	!	!	!	!	!	!LO:TX:a:t=rit.	!
16C~LL	.	16C~LL	.	16c~LL	.	16f~LL	.	16g~LL	.	1r	.	1r	.	.	1r	1r	.	1r	1r	.	1r	.	1r	.	2.g	.	2.ccc	.
16C~JJ	.	16C~JJ	.	16c~JJ	.	16f~JJ	.	16g~JJ	.	.	.	.	.	.	.	.	.	.	.	.	.	.	.	.	.	.	.	.
16r	.	16r	.	16r	.	16r	.	16r	.	.	.	.	.	.	.	.	.	.	.	.	.	.	.	.	.	.	.	.
16C~	.	16C~	.	16c~	.	16f~	.	16g~	.	.	.	.	.	.	.	.	.	.	.	.	.	.	.	.	.	.	.	.
16C~LL	.	16C~LL	.	16c~LL	.	16f~LL	.	16g~LL	.	.	.	.	.	.	.	.	.	.	.	.	.	.	.	.	.	.	.	.
16C~JJ	.	16C~JJ	.	16c~JJ	.	16f~JJ	.	16g~JJ	.	.	.	.	.	.	.	.	.	.	.	.	.	.	.	.	.	.	.	.
16r	.	16r	.	16r	.	16r	.	16r	.	.	.	.	.	.	.	.	.	.	.	.	.	.	.	.	.	.	.	.
16C~	.	16C~	.	16f~	.	16cc~	.	16gg~	.	.	.	.	.	.	.	.	.	.	.	.	.	.	.	.	.	.	.	.
4C	.	4C	.	4e	.	4cc	.	4gg	.	.	.	.	.	.	.	.	.	.	.	.	.	.	.	.	.	.	.	.
4C	.	4C	.	4c	.	4e	.	4g	.	.	.	.	.	.	.	.	.	.	.	.	.	.	.	.	8r	.	8r	.
.	.	.	.	.	.	.	.	.	.	.	.	.	.	.	.	.	.	.	.	.	.	.	.	.	8g	.	8ee	.
=64	=64	=64	=64	=64	=64	=64	=64	=64	=64	=64	=64	=64	=64	=64	=64	=64	=64	=64	=64	=64	=64	=64	=64	=64	=64	=64	=64	=64
1F	.	1F	.	1A	.	1c	.	1f	.	1r	.	1r	.	.	1r	1r	.	1r	1r	.	1r	.	1r	.	1a	.	1ff	.
==65	==65	==65	==65	==65	==65	==65	==65	==65	==65	==65	==65	==65	==65	==65	==65	==65	==65	==65	==65	==65	==65	==65	==65	==65	==65	==65	==65	==65
*-	*-	*-	*-	*-	*-	*-	*-	*-	*-	*-	*-	*-	*-	*-	*-	*-	*-	*-	*-	*-	*-	*-	*-	*-	*-	*-	*-	*-
!!!system-decoration: [(s1,s2,s3,s4)]{(s5,s6)}(s7)(s8)[(s9,s10)][(s11,s12,s13,s14,s15)]
!!!YEM: Copyright by Tomasz Kozubek. All rights reserved
